(G-CODE GENERATED BY FLATCAM v8.99 - www.flatcam.org - Version Date: 2019/12/15)

(Name: Business Card-Edge_Cuts.gbr_iso_cnc)
(Type: G-code from Geometry)
(Units: MM)

(Created on Thursday, 20 November 2025 at 02:54)

(TOOL DIAMETER: 2.0 mm)
(Feedrate: 120.0 mm/min)
(Feedrate_Z: 60.0 mm/min)
(Feedrate rapids 1500.0 mm/min)

(Z_Cut: -2.0 mm)
(Z_Move: 2.0 mm)
(Z Toolchange: 15.0 mm)
(X,Y Toolchange: 0.0000, 0.0000 mm)
(Z Start: None mm)
(Z End: 5.0 mm)
(Steps per circle: 64)
(Preprocessor Geometry: default)

(X range:   -0.0250 ...   91.0250  mm)
(Y range:   -0.5250 ...   52.5250  mm)

(Spindle Speed: None RPM)
G21
G90
G94




G01 F120.00
G00 Z2.0000

M03
G00 X2.0250 Y50.4750
G01 F60.00
G01 Z-2.0000
G01 F120.00
G01 X2.0250 Y1.5250
G01 X88.9750 Y1.5250
G01 X88.9750 Y50.4750
G01 X2.0250 Y50.4750
G00 Z2.0000
G00 X-0.0250 Y51.5000
G01 F60.00
G01 Z-2.0000
G01 F120.00
G01 X-0.0250 Y0.5000
G01 X-0.0247 Y0.4755
G01 X-0.0237 Y0.4485
G01 X-0.0201 Y0.3995
G01 X-0.0141 Y0.3508
G01 X-0.0053 Y0.3000
G01 X0.0060 Y0.2498
G01 X0.0191 Y0.2025
G01 X0.0345 Y0.1558
G01 X0.0530 Y0.1077
G01 X0.0740 Y0.0607
G01 X0.0960 Y0.0168
G01 X0.1202 Y-0.0259
G01 X0.1477 Y-0.0695
G01 X0.1775 Y-0.1116
G01 X0.2076 Y-0.1503
G01 X0.2397 Y-0.1874
G01 X0.2752 Y-0.2248
G01 X0.3126 Y-0.2603
G01 X0.3497 Y-0.2923
G01 X0.3884 Y-0.3225
G01 X0.4305 Y-0.3523
G01 X0.4741 Y-0.3798
G01 X0.5168 Y-0.4040
G01 X0.5607 Y-0.4260
G01 X0.6078 Y-0.4470
G01 X0.6558 Y-0.4655
G01 X0.7025 Y-0.4809
G01 X0.7498 Y-0.4940
G01 X0.8000 Y-0.5053
G01 X0.8508 Y-0.5141
G01 X0.8995 Y-0.5201
G01 X0.9485 Y-0.5237
G01 X0.9755 Y-0.5247
G01 X1.0000 Y-0.5250
G01 X90.0000 Y-0.5250
G01 X90.0245 Y-0.5247
G01 X90.0515 Y-0.5237
G01 X90.1005 Y-0.5201
G01 X90.1492 Y-0.5141
G01 X90.2000 Y-0.5053
G01 X90.2502 Y-0.4940
G01 X90.2976 Y-0.4809
G01 X90.3442 Y-0.4655
G01 X90.3923 Y-0.4470
G01 X90.4393 Y-0.4260
G01 X90.4832 Y-0.4040
G01 X90.5259 Y-0.3798
G01 X90.5694 Y-0.3523
G01 X90.6116 Y-0.3225
G01 X90.6503 Y-0.2923
G01 X90.6874 Y-0.2603
G01 X90.7248 Y-0.2248
G01 X90.7603 Y-0.1874
G01 X90.7923 Y-0.1503
G01 X90.8225 Y-0.1116
G01 X90.8523 Y-0.0694
G01 X90.8798 Y-0.0259
G01 X90.9040 Y0.0168
G01 X90.9260 Y0.0607
G01 X90.9470 Y0.1077
G01 X90.9655 Y0.1558
G01 X90.9809 Y0.2024
G01 X90.9940 Y0.2498
G01 X91.0053 Y0.3000
G01 X91.0141 Y0.3508
G01 X91.0201 Y0.3995
G01 X91.0237 Y0.4485
G01 X91.0247 Y0.4755
G01 X91.0250 Y0.5000
G01 X91.0250 Y51.5000
G01 X91.0247 Y51.5245
G01 X91.0237 Y51.5515
G01 X91.0201 Y51.6005
G01 X91.0141 Y51.6492
G01 X91.0053 Y51.7000
G01 X90.9940 Y51.7502
G01 X90.9809 Y51.7975
G01 X90.9655 Y51.8442
G01 X90.9470 Y51.8922
G01 X90.9260 Y51.9393
G01 X90.9040 Y51.9832
G01 X90.8798 Y52.0259
G01 X90.8523 Y52.0695
G01 X90.8225 Y52.1116
G01 X90.7923 Y52.1503
G01 X90.7603 Y52.1874
G01 X90.7248 Y52.2248
G01 X90.6874 Y52.2603
G01 X90.6503 Y52.2924
G01 X90.6116 Y52.3225
G01 X90.5695 Y52.3523
G01 X90.5259 Y52.3798
G01 X90.4832 Y52.4040
G01 X90.4393 Y52.4260
G01 X90.3923 Y52.4470
G01 X90.3442 Y52.4655
G01 X90.2975 Y52.4809
G01 X90.2502 Y52.4940
G01 X90.2000 Y52.5053
G01 X90.1492 Y52.5141
G01 X90.1005 Y52.5201
G01 X90.0515 Y52.5237
G01 X90.0245 Y52.5247
G01 X90.0000 Y52.5250
G01 X1.0000 Y52.5250
G01 X0.9755 Y52.5247
G01 X0.9485 Y52.5237
G01 X0.8995 Y52.5201
G01 X0.8484 Y52.5137
G01 X0.8000 Y52.5053
G01 X0.7498 Y52.4940
G01 X0.7024 Y52.4809
G01 X0.6535 Y52.4647
G01 X0.6077 Y52.4470
G01 X0.5607 Y52.4260
G01 X0.5168 Y52.4040
G01 X0.4720 Y52.3785
G01 X0.4305 Y52.3523
G01 X0.3884 Y52.3225
G01 X0.3497 Y52.2924
G01 X0.3126 Y52.2603
G01 X0.2752 Y52.2248
G01 X0.2397 Y52.1874
G01 X0.2076 Y52.1503
G01 X0.1775 Y52.1116
G01 X0.1477 Y52.0695
G01 X0.1215 Y52.0280
G01 X0.0960 Y51.9832
G01 X0.0740 Y51.9393
G01 X0.0530 Y51.8923
G01 X0.0353 Y51.8465
G01 X0.0191 Y51.7976
G01 X0.0060 Y51.7502
G01 X-0.0053 Y51.7000
G01 X-0.0137 Y51.6516
G01 X-0.0201 Y51.6005
G01 X-0.0237 Y51.5515
G01 X-0.0247 Y51.5245
G01 X-0.0250 Y51.5000
G00 Z2.0000
M05
G00 Z2.0000
G00 Z5.00
G00 X0.0 Y0.0

