(G-CODE GENERATED BY FLATCAM v8.99 - www.flatcam.org - Version Date: 2019/12/15)

(Name: Business Card-PTH.drl_cnc)
(Type: G-code from Excellon)
(Units: MM)

(Created on Thursday, 20 November 2025 at 02:54)

(Feedrate: 300.0 mm/min)
(Feedrate rapids 1500.0 mm/min)

(Z_Cut: -1.7 mm)
(Z_Move: 2.0 mm)
(Z Toolchange: 15.0 mm)
(X,Y Toolchange: 0.0000, 0.0000 mm)
(Z Start: None mm)
(Z End: 0.5 mm)
(Steps per circle: 64)
(Preprocessor Excellon: default)

(X range:    8.2500 ...   42.4900  mm)
(Y range:   10.7000 ...   38.5000  mm)

(Spindle Speed: None RPM)
G21
G90
G94




G01 F300.00
G00 Z2.0000

M03
G00 X39.5000 Y38.0000
G01 Z-1.7000
G01 Z0
G00 Z2.0000
G00 X42.0400 Y38.0000
G01 Z-1.7000
G01 Z0
G00 Z2.0000
M03
G00 X8.7500 Y38.0000
G01 Z-1.7000
G01 Z0
G00 Z2.0000
G00 X28.7500 Y38.0000
G01 Z-1.7000
G01 Z0
G00 Z2.0000
M03
G00 X10.7500 Y17.7500
G01 Z-1.7000
G01 Z0
G00 Z2.0000
G00 X15.2500 Y17.7500
G01 Z-1.7000
G01 Z0
G00 Z2.0000
G00 X15.2500 Y11.2500
G01 Z-1.7000
G01 Z0
G00 Z2.0000
G00 X10.7500 Y11.2500
G01 Z-1.7000
G01 Z0
G00 Z2.0000
M03
G00 X33.0000 Y23.5100
G01 Z-1.7000
G01 Z0
G00 Z2.0000
G00 X33.0000 Y15.8900
G01 Z-1.7000
G01 Z0
G00 Z2.0000
M05
G00 Z0.50
G00 X0.0 Y0.0

