(G-CODE GENERATED BY FLATCAM v8.99 - www.flatcam.org - Version Date: 2019/12/15)

(Name: Business Card-F_Cu.gbr_iso_cnc)
(Type: G-code from Geometry)
(Units: MM)

(Created on Thursday, 20 November 2025 at 02:54)

(TOOL DIAMETER: 0.1562 mm)
(Feedrate: 120.0 mm/min)
(Feedrate_Z: 60.0 mm/min)
(Feedrate rapids 1500.0 mm/min)

(Z_Cut: -2.4 mm)
(Z_Move: 2.0 mm)
(Z Toolchange: 15.0 mm)
(X,Y Toolchange: 0.0000, 0.0000 mm)
(Z Start: None mm)
(Z End: 15.0 mm)
(Steps per circle: 64)
(Preprocessor Geometry: default)

(X range:    0.8913 ...   90.1087  mm)
(Y range:    0.3913 ...   51.6087  mm)

(Spindle Speed: None RPM)
G21
G90
G94




G01 F120.00
G00 Z2.0000

M03
G00 X0.9052 Y0.9950
G01 F60.00
G01 Z-2.4000
G01 F120.00
G01 X0.9164 Y0.9435
G01 X0.9358 Y0.8744
G01 X0.9631 Y0.8081
G01 X0.9666 Y0.8010
G01 X0.9913 Y0.7564
G01 X1.0196 Y0.7140
G01 X1.0513 Y0.6741
G01 X1.0971 Y0.6213
G01 X1.1373 Y0.5791
G01 X1.1813 Y0.5410
G01 X1.2288 Y0.5073
G01 X1.2788 Y0.4785
G01 X1.3313 Y0.4545
G01 X1.3858 Y0.4357
G01 X1.4529 Y0.4160
G01 X1.5092 Y0.4023
G01 X1.5666 Y0.3941
G01 X1.6245 Y0.3913
G01 X89.3755 Y0.3913
G01 X89.4406 Y0.3948
G01 X89.5050 Y0.4052
G01 X89.5565 Y0.4164
G01 X89.6256 Y0.4358
G01 X89.6919 Y0.4631
G01 X89.6990 Y0.4666
G01 X89.7436 Y0.4913
G01 X89.7860 Y0.5196
G01 X89.8259 Y0.5513
G01 X89.8787 Y0.5971
G01 X89.9209 Y0.6373
G01 X89.9590 Y0.6813
G01 X89.9927 Y0.7288
G01 X90.0215 Y0.7788
G01 X90.0455 Y0.8313
G01 X90.0643 Y0.8858
G01 X90.0840 Y0.9529
G01 X90.0977 Y1.0092
G01 X90.1059 Y1.0666
G01 X90.1087 Y1.1245
G01 X90.1087 Y50.8755
G01 X90.1052 Y50.9406
G01 X90.0948 Y51.0050
G01 X90.0836 Y51.0565
G01 X90.0642 Y51.1256
G01 X90.0369 Y51.1919
G01 X90.0334 Y51.1990
G01 X90.0087 Y51.2436
G01 X89.9804 Y51.2861
G01 X89.9487 Y51.3259
G01 X89.9029 Y51.3787
G01 X89.8627 Y51.4209
G01 X89.8187 Y51.4590
G01 X89.7712 Y51.4927
G01 X89.7212 Y51.5215
G01 X89.6687 Y51.5455
G01 X89.6142 Y51.5643
G01 X89.5471 Y51.5840
G01 X89.4908 Y51.5977
G01 X89.4334 Y51.6059
G01 X89.3755 Y51.6087
G01 X1.6245 Y51.6087
G01 X1.5594 Y51.6052
G01 X1.4950 Y51.5948
G01 X1.4435 Y51.5836
G01 X1.3744 Y51.5642
G01 X1.3081 Y51.5369
G01 X1.3010 Y51.5334
G01 X1.2564 Y51.5087
G01 X1.2140 Y51.4804
G01 X1.1741 Y51.4487
G01 X1.1213 Y51.4029
G01 X1.0791 Y51.3627
G01 X1.0410 Y51.3187
G01 X1.0073 Y51.2712
G01 X0.9785 Y51.2212
G01 X0.9545 Y51.1687
G01 X0.9357 Y51.1142
G01 X0.9160 Y51.0471
G01 X0.9023 Y50.9908
G01 X0.8941 Y50.9334
G01 X0.8913 Y50.8755
G01 X0.8913 Y1.1245
G01 X0.8948 Y1.0594
G01 X0.9052 Y0.9950
G00 Z2.0000
G00 X1.0350 Y1.0232
G01 F60.00
G01 Z-2.4000
G01 F120.00
G01 X1.0462 Y0.9717
G01 X1.0613 Y0.9177
G01 X1.0827 Y0.8658
G01 X1.0854 Y0.8603
G01 X1.1047 Y0.8254
G01 X1.1268 Y0.7922
G01 X1.1517 Y0.7610
G01 X1.1974 Y0.7082
G01 X1.2289 Y0.6752
G01 X1.2633 Y0.6454
G01 X1.3004 Y0.6190
G01 X1.3395 Y0.5965
G01 X1.3806 Y0.5778
G01 X1.4232 Y0.5631
G01 X1.4903 Y0.5434
G01 X1.5343 Y0.5327
G01 X1.5792 Y0.5262
G01 X1.6245 Y0.5241
G01 X89.3755 Y0.5241
G01 X89.4264 Y0.5268
G01 X89.4768 Y0.5350
G01 X89.5283 Y0.5462
G01 X89.5823 Y0.5613
G01 X89.6342 Y0.5827
G01 X89.6397 Y0.5854
G01 X89.6746 Y0.6047
G01 X89.7078 Y0.6268
G01 X89.7390 Y0.6517
G01 X89.7918 Y0.6974
G01 X89.8248 Y0.7289
G01 X89.8546 Y0.7633
G01 X89.8809 Y0.8004
G01 X89.9035 Y0.8395
G01 X89.9222 Y0.8806
G01 X89.9369 Y0.9232
G01 X89.9566 Y0.9903
G01 X89.9673 Y1.0343
G01 X89.9738 Y1.0792
G01 X89.9759 Y1.1245
G01 X89.9759 Y50.8755
G01 X89.9732 Y50.9264
G01 X89.9650 Y50.9768
G01 X89.9538 Y51.0283
G01 X89.9387 Y51.0823
G01 X89.9173 Y51.1342
G01 X89.9146 Y51.1397
G01 X89.8953 Y51.1746
G01 X89.8732 Y51.2078
G01 X89.8483 Y51.2390
G01 X89.8026 Y51.2918
G01 X89.7711 Y51.3248
G01 X89.7367 Y51.3546
G01 X89.6996 Y51.3809
G01 X89.6605 Y51.4035
G01 X89.6194 Y51.4222
G01 X89.5768 Y51.4369
G01 X89.5097 Y51.4566
G01 X89.4657 Y51.4673
G01 X89.4208 Y51.4738
G01 X89.3755 Y51.4759
G01 X1.6245 Y51.4759
G01 X1.5736 Y51.4732
G01 X1.5232 Y51.4650
G01 X1.4717 Y51.4538
G01 X1.4177 Y51.4387
G01 X1.3658 Y51.4173
G01 X1.3603 Y51.4146
G01 X1.3254 Y51.3953
G01 X1.2922 Y51.3732
G01 X1.2610 Y51.3483
G01 X1.2082 Y51.3026
G01 X1.1752 Y51.2711
G01 X1.1454 Y51.2367
G01 X1.1191 Y51.1996
G01 X1.0965 Y51.1605
G01 X1.0778 Y51.1194
G01 X1.0631 Y51.0768
G01 X1.0434 Y51.0097
G01 X1.0327 Y50.9657
G01 X1.0262 Y50.9208
G01 X1.0241 Y50.8755
G01 X1.0241 Y1.1245
G01 X1.0268 Y1.0736
G01 X1.0350 Y1.0232
G00 Z2.0000
G00 X1.1647 Y1.0515
G01 F60.00
G01 Z-2.4000
G01 F120.00
G01 X1.1759 Y0.9999
G01 X1.1868 Y0.9610
G01 X1.2023 Y0.9236
G01 X1.2181 Y0.8944
G01 X1.2341 Y0.8705
G01 X1.2520 Y0.8480
G01 X1.2978 Y0.7951
G01 X1.3204 Y0.7714
G01 X1.3453 Y0.7499
G01 X1.3721 Y0.7308
G01 X1.4003 Y0.7146
G01 X1.4299 Y0.7011
G01 X1.4606 Y0.6905
G01 X1.5277 Y0.6708
G01 X1.5595 Y0.6631
G01 X1.5918 Y0.6584
G01 X1.6245 Y0.6569
G01 X89.3755 Y0.6569
G01 X89.4122 Y0.6588
G01 X89.4485 Y0.6647
G01 X89.5001 Y0.6759
G01 X89.5390 Y0.6868
G01 X89.5764 Y0.7023
G01 X89.6056 Y0.7181
G01 X89.6295 Y0.7341
G01 X89.6520 Y0.7520
G01 X89.7049 Y0.7978
G01 X89.7286 Y0.8204
G01 X89.7501 Y0.8453
G01 X89.7692 Y0.8721
G01 X89.7854 Y0.9003
G01 X89.7989 Y0.9299
G01 X89.8095 Y0.9606
G01 X89.8292 Y1.0277
G01 X89.8369 Y1.0595
G01 X89.8416 Y1.0918
G01 X89.8431 Y1.1245
G01 X89.8431 Y50.8755
G01 X89.8412 Y50.9122
G01 X89.8353 Y50.9485
G01 X89.8241 Y51.0001
G01 X89.8132 Y51.0390
G01 X89.7977 Y51.0764
G01 X89.7819 Y51.1056
G01 X89.7659 Y51.1295
G01 X89.7480 Y51.1520
G01 X89.7022 Y51.2049
G01 X89.6796 Y51.2286
G01 X89.6547 Y51.2501
G01 X89.6279 Y51.2692
G01 X89.5997 Y51.2854
G01 X89.5701 Y51.2989
G01 X89.5394 Y51.3095
G01 X89.4723 Y51.3292
G01 X89.4405 Y51.3369
G01 X89.4082 Y51.3416
G01 X89.3755 Y51.3431
G01 X1.6245 Y51.3431
G01 X1.5878 Y51.3412
G01 X1.5515 Y51.3353
G01 X1.4999 Y51.3241
G01 X1.4610 Y51.3132
G01 X1.4236 Y51.2977
G01 X1.3944 Y51.2819
G01 X1.3705 Y51.2659
G01 X1.3480 Y51.2480
G01 X1.2951 Y51.2022
G01 X1.2714 Y51.1796
G01 X1.2499 Y51.1547
G01 X1.2308 Y51.1279
G01 X1.2146 Y51.0997
G01 X1.2011 Y51.0701
G01 X1.1905 Y51.0394
G01 X1.1708 Y50.9723
G01 X1.1631 Y50.9405
G01 X1.1584 Y50.9082
G01 X1.1569 Y50.8755
G01 X1.1569 Y1.1245
G01 X1.1588 Y1.0878
G01 X1.1647 Y1.0515
G00 Z2.0000
G00 X1.2944 Y1.0797
G01 F60.00
G01 Z-2.4000
G01 F120.00
G01 X1.3057 Y1.0282
G01 X1.3124 Y1.0043
G01 X1.3218 Y0.9813
G01 X1.3316 Y0.9634
G01 X1.3414 Y0.9487
G01 X1.3523 Y0.9349
G01 X1.3981 Y0.8821
G01 X1.4120 Y0.8675
G01 X1.4273 Y0.8543
G01 X1.4437 Y0.8426
G01 X1.4610 Y0.8327
G01 X1.4792 Y0.8244
G01 X1.4981 Y0.8179
G01 X1.5651 Y0.7982
G01 X1.5846 Y0.7934
G01 X1.6045 Y0.7906
G01 X1.6245 Y0.7896
G01 X89.3755 Y0.7896
G01 X89.3980 Y0.7908
G01 X89.4203 Y0.7944
G01 X89.4718 Y0.8057
G01 X89.4957 Y0.8124
G01 X89.5187 Y0.8218
G01 X89.5366 Y0.8316
G01 X89.5513 Y0.8414
G01 X89.5651 Y0.8523
G01 X89.6179 Y0.8981
G01 X89.6325 Y0.9120
G01 X89.6457 Y0.9273
G01 X89.6574 Y0.9437
G01 X89.6673 Y0.9610
G01 X89.6756 Y0.9792
G01 X89.6821 Y0.9981
G01 X89.7018 Y1.0651
G01 X89.7066 Y1.0846
G01 X89.7094 Y1.1045
G01 X89.7104 Y1.1245
G01 X89.7104 Y50.8755
G01 X89.7092 Y50.8980
G01 X89.7056 Y50.9203
G01 X89.6943 Y50.9718
G01 X89.6876 Y50.9957
G01 X89.6782 Y51.0187
G01 X89.6684 Y51.0366
G01 X89.6586 Y51.0513
G01 X89.6477 Y51.0651
G01 X89.6019 Y51.1179
G01 X89.5880 Y51.1325
G01 X89.5727 Y51.1457
G01 X89.5563 Y51.1574
G01 X89.5390 Y51.1673
G01 X89.5208 Y51.1756
G01 X89.5019 Y51.1821
G01 X89.4349 Y51.2018
G01 X89.4154 Y51.2066
G01 X89.3955 Y51.2094
G01 X89.3755 Y51.2104
G01 X1.6245 Y51.2104
G01 X1.6020 Y51.2092
G01 X1.5797 Y51.2056
G01 X1.5282 Y51.1943
G01 X1.5043 Y51.1876
G01 X1.4813 Y51.1782
G01 X1.4634 Y51.1684
G01 X1.4487 Y51.1586
G01 X1.4349 Y51.1477
G01 X1.3821 Y51.1019
G01 X1.3675 Y51.0880
G01 X1.3543 Y51.0727
G01 X1.3426 Y51.0563
G01 X1.3327 Y51.0390
G01 X1.3244 Y51.0208
G01 X1.3179 Y51.0019
G01 X1.2982 Y50.9349
G01 X1.2934 Y50.9154
G01 X1.2906 Y50.8955
G01 X1.2896 Y50.8755
G01 X1.2896 Y1.1245
G01 X1.2908 Y1.1020
G01 X1.2944 Y1.0797
G00 Z2.0000
G00 X1.4242 Y1.1079
G01 F60.00
G01 Z-2.4000
G01 F120.00
G01 X1.4354 Y1.0564
G01 X1.4379 Y1.0475
G01 X1.4418 Y1.0381
G01 X1.4450 Y1.0324
G01 X1.4486 Y1.0270
G01 X1.4527 Y1.0218
G01 X1.4984 Y0.9690
G01 X1.5036 Y0.9636
G01 X1.5092 Y0.9588
G01 X1.5153 Y0.9544
G01 X1.5217 Y0.9507
G01 X1.5285 Y0.9477
G01 X1.5355 Y0.9452
G01 X1.6025 Y0.9256
G01 X1.6097 Y0.9238
G01 X1.6171 Y0.9228
G01 X1.6245 Y0.9224
G01 X89.3755 Y0.9224
G01 X89.3838 Y0.9228
G01 X89.3921 Y0.9242
G01 X89.4436 Y0.9354
G01 X89.4525 Y0.9379
G01 X89.4610 Y0.9414
G01 X89.4676 Y0.9450
G01 X89.4730 Y0.9486
G01 X89.4782 Y0.9527
G01 X89.5310 Y0.9984
G01 X89.5364 Y1.0036
G01 X89.5412 Y1.0092
G01 X89.5456 Y1.0153
G01 X89.5493 Y1.0217
G01 X89.5523 Y1.0285
G01 X89.5548 Y1.0355
G01 X89.5744 Y1.1025
G01 X89.5762 Y1.1097
G01 X89.5772 Y1.1171
G01 X89.5776 Y1.1245
G01 X89.5776 Y50.8755
G01 X89.5772 Y50.8838
G01 X89.5758 Y50.8921
G01 X89.5646 Y50.9436
G01 X89.5621 Y50.9525
G01 X89.5586 Y50.9610
G01 X89.5550 Y50.9676
G01 X89.5514 Y50.9730
G01 X89.5473 Y50.9782
G01 X89.5016 Y51.0310
G01 X89.4964 Y51.0364
G01 X89.4908 Y51.0412
G01 X89.4847 Y51.0456
G01 X89.4783 Y51.0493
G01 X89.4715 Y51.0523
G01 X89.4645 Y51.0548
G01 X89.3975 Y51.0744
G01 X89.3903 Y51.0762
G01 X89.3829 Y51.0772
G01 X89.3755 Y51.0776
G01 X1.6245 Y51.0776
G01 X1.6162 Y51.0772
G01 X1.6079 Y51.0758
G01 X1.5564 Y51.0646
G01 X1.5475 Y51.0621
G01 X1.5390 Y51.0586
G01 X1.5324 Y51.0550
G01 X1.5270 Y51.0514
G01 X1.5218 Y51.0473
G01 X1.4690 Y51.0016
G01 X1.4636 Y50.9964
G01 X1.4588 Y50.9908
G01 X1.4544 Y50.9847
G01 X1.4507 Y50.9783
G01 X1.4477 Y50.9715
G01 X1.4452 Y50.9645
G01 X1.4256 Y50.8975
G01 X1.4238 Y50.8903
G01 X1.4228 Y50.8829
G01 X1.4224 Y50.8755
G01 X1.4224 Y1.1245
G01 X1.4228 Y1.1162
G01 X1.4242 Y1.1079
G00 Z2.0000
G00 X13.8276 Y11.3620
G01 F60.00
G01 Z-2.4000
G01 F120.00
G01 X13.8276 Y11.1380
G01 X13.8626 Y10.9169
G01 X13.9318 Y10.7040
G01 X14.0335 Y10.5045
G01 X14.1651 Y10.3234
G01 X14.3234 Y10.1651
G01 X14.5045 Y10.0335
G01 X14.7040 Y9.9318
G01 X14.9169 Y9.8626
G01 X15.1380 Y9.8276
G01 X15.3620 Y9.8276
G01 X15.5831 Y9.8626
G01 X15.7960 Y9.9318
G01 X15.9955 Y10.0335
G01 X16.1766 Y10.1651
G01 X16.3349 Y10.3234
G01 X16.4665 Y10.5045
G01 X16.5682 Y10.7040
G01 X16.6374 Y10.9169
G01 X16.6724 Y11.1380
G01 X16.6724 Y11.3620
G01 X16.6374 Y11.5831
G01 X16.5682 Y11.7960
G01 X16.4665 Y11.9955
G01 X16.3349 Y12.1766
G01 X16.1766 Y12.3349
G01 X15.9955 Y12.4665
G01 X15.7960 Y12.5682
G01 X15.5831 Y12.6374
G01 X15.3620 Y12.6724
G01 X15.1380 Y12.6724
G01 X14.9169 Y12.6374
G01 X14.7040 Y12.5682
G01 X14.5045 Y12.4665
G01 X14.3234 Y12.3349
G01 X14.1651 Y12.1766
G01 X14.1090 Y12.0995
G01 X14.0335 Y11.9955
G01 X13.9318 Y11.7960
G01 X13.8626 Y11.5831
G01 X13.8276 Y11.3620
G00 Z2.0000
G00 X13.9604 Y11.3515
G01 F60.00
G01 Z-2.4000
G01 F120.00
G01 X13.9604 Y11.1485
G01 X13.9921 Y10.9480
G01 X14.0549 Y10.7550
G01 X14.1470 Y10.5741
G01 X14.2663 Y10.4099
G01 X14.4099 Y10.2663
G01 X14.5741 Y10.1470
G01 X14.7549 Y10.0549
G01 X14.9480 Y9.9921
G01 X15.1485 Y9.9604
G01 X15.3515 Y9.9604
G01 X15.5520 Y9.9921
G01 X15.7450 Y10.0549
G01 X15.9259 Y10.1470
G01 X16.0901 Y10.2663
G01 X16.2337 Y10.4099
G01 X16.3530 Y10.5741
G01 X16.4451 Y10.7550
G01 X16.5079 Y10.9480
G01 X16.5396 Y11.1485
G01 X16.5396 Y11.3515
G01 X16.5079 Y11.5520
G01 X16.4451 Y11.7451
G01 X16.3530 Y11.9259
G01 X16.2337 Y12.0901
G01 X16.0901 Y12.2337
G01 X15.9259 Y12.3530
G01 X15.7450 Y12.4451
G01 X15.5520 Y12.5079
G01 X15.3515 Y12.5396
G01 X15.1485 Y12.5396
G01 X14.9480 Y12.5079
G01 X14.7549 Y12.4451
G01 X14.5741 Y12.3530
G01 X14.4099 Y12.2337
G01 X14.2663 Y12.0901
G01 X14.2165 Y12.0215
G01 X14.1470 Y11.9259
G01 X14.0549 Y11.7451
G01 X13.9921 Y11.5520
G01 X13.9604 Y11.3515
G00 Z2.0000
G00 X14.0445 Y11.3583
G01 F60.00
G01 Z-2.4000
G01 F120.00
G01 X14.0442 Y11.3584
G01 X14.0394 Y11.2603
G01 X14.0394 Y11.2397
G01 X14.0442 Y11.1416
G01 X14.0462 Y11.1210
G01 X14.0610 Y11.0214
G01 X14.0647 Y11.0037
G01 X14.0885 Y10.9085
G01 X14.0945 Y10.8887
G01 X14.1276 Y10.7963
G01 X14.1355 Y10.7772
G01 X14.1775 Y10.6884
G01 X14.1872 Y10.6702
G01 X14.2377 Y10.5860
G01 X14.2481 Y10.5702
G01 X14.3076 Y10.4900
G01 X14.3210 Y10.4743
G01 X14.3207 Y10.4740
G01 X14.3866 Y10.4013
G01 X14.4013 Y10.3866
G01 X14.4740 Y10.3207
G01 X14.4900 Y10.3076
G01 X14.5688 Y10.2492
G01 X14.5860 Y10.2377
G01 X14.6702 Y10.1872
G01 X14.6884 Y10.1775
G01 X14.7772 Y10.1355
G01 X14.7963 Y10.1276
G01 X14.8887 Y10.0945
G01 X14.9085 Y10.0885
G01 X15.0037 Y10.0647
G01 X15.0214 Y10.0610
G01 X15.1210 Y10.0462
G01 X15.1417 Y10.0445
G01 X15.1416 Y10.0442
G01 X15.2397 Y10.0394
G01 X15.2603 Y10.0394
G01 X15.3584 Y10.0442
G01 X15.3790 Y10.0462
G01 X15.4760 Y10.0606
G01 X15.4963 Y10.0647
G01 X15.5915 Y10.0885
G01 X15.6113 Y10.0945
G01 X15.7037 Y10.1276
G01 X15.7228 Y10.1355
G01 X15.8116 Y10.1775
G01 X15.8298 Y10.1872
G01 X15.9140 Y10.2377
G01 X15.9298 Y10.2481
G01 X16.0100 Y10.3076
G01 X16.0257 Y10.3210
G01 X16.0260 Y10.3207
G01 X16.0987 Y10.3866
G01 X16.1134 Y10.4013
G01 X16.1793 Y10.4740
G01 X16.1924 Y10.4900
G01 X16.2508 Y10.5688
G01 X16.2623 Y10.5860
G01 X16.3128 Y10.6702
G01 X16.3225 Y10.6884
G01 X16.3645 Y10.7772
G01 X16.3724 Y10.7963
G01 X16.4055 Y10.8887
G01 X16.4115 Y10.9085
G01 X16.4353 Y11.0037
G01 X16.4390 Y11.0214
G01 X16.4538 Y11.1210
G01 X16.4555 Y11.1417
G01 X16.4558 Y11.1416
G01 X16.4606 Y11.2397
G01 X16.4606 Y11.2603
G01 X16.4558 Y11.3584
G01 X16.4538 Y11.3790
G01 X16.4394 Y11.4760
G01 X16.4353 Y11.4963
G01 X16.4115 Y11.5915
G01 X16.4055 Y11.6113
G01 X16.3724 Y11.7037
G01 X16.3645 Y11.7228
G01 X16.3225 Y11.8116
G01 X16.3128 Y11.8298
G01 X16.2623 Y11.9140
G01 X16.2519 Y11.9298
G01 X16.1924 Y12.0100
G01 X16.1790 Y12.0257
G01 X16.1793 Y12.0260
G01 X16.1134 Y12.0987
G01 X16.0987 Y12.1134
G01 X16.0260 Y12.1793
G01 X16.0100 Y12.1924
G01 X15.9312 Y12.2508
G01 X15.9140 Y12.2623
G01 X15.8298 Y12.3128
G01 X15.8116 Y12.3225
G01 X15.7228 Y12.3645
G01 X15.7037 Y12.3724
G01 X15.6113 Y12.4055
G01 X15.5915 Y12.4115
G01 X15.4963 Y12.4353
G01 X15.4786 Y12.4390
G01 X15.3790 Y12.4538
G01 X15.3583 Y12.4555
G01 X15.3584 Y12.4558
G01 X15.2603 Y12.4606
G01 X15.2397 Y12.4606
G01 X15.1416 Y12.4558
G01 X15.1210 Y12.4538
G01 X15.0240 Y12.4394
G01 X15.0037 Y12.4353
G01 X14.9085 Y12.4115
G01 X14.8887 Y12.4055
G01 X14.7963 Y12.3724
G01 X14.7772 Y12.3645
G01 X14.6884 Y12.3225
G01 X14.6702 Y12.3128
G01 X14.5860 Y12.2623
G01 X14.5702 Y12.2519
G01 X14.4900 Y12.1924
G01 X14.4743 Y12.1790
G01 X14.4740 Y12.1793
G01 X14.4013 Y12.1134
G01 X14.3866 Y12.0987
G01 X14.3207 Y12.0260
G01 X14.3076 Y12.0100
G01 X14.2492 Y11.9312
G01 X14.2377 Y11.9140
G01 X14.1872 Y11.8298
G01 X14.1775 Y11.8116
G01 X14.1355 Y11.7228
G01 X14.1276 Y11.7037
G01 X14.0945 Y11.6113
G01 X14.0885 Y11.5915
G01 X14.0647 Y11.4963
G01 X14.0610 Y11.4786
G01 X14.0462 Y11.3790
G01 X14.0445 Y11.3583
G00 Z2.0000
G00 X14.1769 Y11.3518
G01 F60.00
G01 Z-2.4000
G01 F120.00
G01 X14.1720 Y11.2538
G01 X14.1720 Y11.2462
G01 X14.1768 Y11.1482
G01 X14.1776 Y11.1405
G01 X14.1921 Y11.0425
G01 X14.1935 Y11.0359
G01 X14.2173 Y10.9407
G01 X14.2195 Y10.9334
G01 X14.2526 Y10.8410
G01 X14.2555 Y10.8339
G01 X14.2975 Y10.7452
G01 X14.3011 Y10.7385
G01 X14.3515 Y10.6543
G01 X14.3554 Y10.6484
G01 X14.4143 Y10.5691
G01 X14.4191 Y10.5632
G01 X14.4850 Y10.4904
G01 X14.4904 Y10.4850
G01 X14.5632 Y10.4191
G01 X14.5691 Y10.4143
G01 X14.6479 Y10.3558
G01 X14.6543 Y10.3515
G01 X14.7385 Y10.3011
G01 X14.7452 Y10.2975
G01 X14.8339 Y10.2555
G01 X14.8410 Y10.2526
G01 X14.9334 Y10.2195
G01 X14.9407 Y10.2173
G01 X15.0359 Y10.1935
G01 X15.0425 Y10.1921
G01 X15.1405 Y10.1776
G01 X15.1482 Y10.1768
G01 X15.2462 Y10.1720
G01 X15.2538 Y10.1720
G01 X15.3518 Y10.1768
G01 X15.3595 Y10.1776
G01 X15.4565 Y10.1920
G01 X15.4641 Y10.1935
G01 X15.5593 Y10.2173
G01 X15.5666 Y10.2195
G01 X15.6590 Y10.2526
G01 X15.6661 Y10.2555
G01 X15.7548 Y10.2975
G01 X15.7615 Y10.3011
G01 X15.8457 Y10.3515
G01 X15.8516 Y10.3554
G01 X15.9309 Y10.4143
G01 X15.9368 Y10.4191
G01 X16.0096 Y10.4850
G01 X16.0150 Y10.4904
G01 X16.0809 Y10.5632
G01 X16.0857 Y10.5691
G01 X16.1442 Y10.6479
G01 X16.1485 Y10.6543
G01 X16.1989 Y10.7385
G01 X16.2025 Y10.7452
G01 X16.2445 Y10.8339
G01 X16.2474 Y10.8410
G01 X16.2805 Y10.9334
G01 X16.2827 Y10.9407
G01 X16.3065 Y11.0359
G01 X16.3079 Y11.0425
G01 X16.3224 Y11.1405
G01 X16.3232 Y11.1482
G01 X16.3280 Y11.2462
G01 X16.3280 Y11.2538
G01 X16.3232 Y11.3518
G01 X16.3224 Y11.3595
G01 X16.3080 Y11.4565
G01 X16.3065 Y11.4641
G01 X16.2827 Y11.5593
G01 X16.2805 Y11.5666
G01 X16.2474 Y11.6590
G01 X16.2445 Y11.6661
G01 X16.2025 Y11.7548
G01 X16.1989 Y11.7615
G01 X16.1485 Y11.8457
G01 X16.1446 Y11.8516
G01 X16.0857 Y11.9309
G01 X16.0809 Y11.9368
G01 X16.0150 Y12.0096
G01 X16.0096 Y12.0150
G01 X15.9368 Y12.0809
G01 X15.9309 Y12.0857
G01 X15.8521 Y12.1442
G01 X15.8457 Y12.1485
G01 X15.7615 Y12.1989
G01 X15.7548 Y12.2025
G01 X15.6661 Y12.2445
G01 X15.6590 Y12.2474
G01 X15.5666 Y12.2805
G01 X15.5593 Y12.2827
G01 X15.4641 Y12.3065
G01 X15.4575 Y12.3079
G01 X15.3595 Y12.3224
G01 X15.3518 Y12.3232
G01 X15.2538 Y12.3280
G01 X15.2462 Y12.3280
G01 X15.1482 Y12.3232
G01 X15.1405 Y12.3224
G01 X15.0435 Y12.3080
G01 X15.0359 Y12.3065
G01 X14.9407 Y12.2827
G01 X14.9334 Y12.2805
G01 X14.8410 Y12.2474
G01 X14.8339 Y12.2445
G01 X14.7452 Y12.2025
G01 X14.7385 Y12.1989
G01 X14.6543 Y12.1485
G01 X14.6484 Y12.1446
G01 X14.5691 Y12.0857
G01 X14.5632 Y12.0809
G01 X14.4904 Y12.0150
G01 X14.4850 Y12.0096
G01 X14.4191 Y11.9368
G01 X14.4143 Y11.9309
G01 X14.3558 Y11.8521
G01 X14.3515 Y11.8457
G01 X14.3011 Y11.7615
G01 X14.2975 Y11.7548
G01 X14.2555 Y11.6661
G01 X14.2526 Y11.6590
G01 X14.2195 Y11.5666
G01 X14.2173 Y11.5593
G01 X14.1935 Y11.4641
G01 X14.1921 Y11.4575
G01 X14.1776 Y11.3595
G01 X14.1769 Y11.3518
G00 Z2.0000
G00 X14.1769 Y17.8518
G01 F60.00
G01 Z-2.4000
G01 F120.00
G01 X14.1720 Y17.7538
G01 X14.1720 Y17.7462
G01 X14.1768 Y17.6482
G01 X14.1776 Y17.6405
G01 X14.1921 Y17.5425
G01 X14.1935 Y17.5359
G01 X14.2173 Y17.4407
G01 X14.2195 Y17.4334
G01 X14.2526 Y17.3410
G01 X14.2555 Y17.3339
G01 X14.2975 Y17.2452
G01 X14.3011 Y17.2385
G01 X14.3515 Y17.1543
G01 X14.3554 Y17.1484
G01 X14.4143 Y17.0691
G01 X14.4191 Y17.0632
G01 X14.4850 Y16.9904
G01 X14.4904 Y16.9850
G01 X14.5632 Y16.9191
G01 X14.5691 Y16.9143
G01 X14.6479 Y16.8558
G01 X14.6543 Y16.8515
G01 X14.7385 Y16.8011
G01 X14.7452 Y16.7975
G01 X14.8339 Y16.7555
G01 X14.8410 Y16.7526
G01 X14.9334 Y16.7195
G01 X14.9407 Y16.7173
G01 X15.0359 Y16.6935
G01 X15.0425 Y16.6921
G01 X15.1405 Y16.6776
G01 X15.1482 Y16.6768
G01 X15.2462 Y16.6720
G01 X15.2538 Y16.6720
G01 X15.3518 Y16.6768
G01 X15.3595 Y16.6776
G01 X15.4565 Y16.6920
G01 X15.4641 Y16.6935
G01 X15.5593 Y16.7173
G01 X15.5666 Y16.7195
G01 X15.6590 Y16.7526
G01 X15.6661 Y16.7555
G01 X15.7548 Y16.7975
G01 X15.7615 Y16.8011
G01 X15.8457 Y16.8515
G01 X15.8521 Y16.8558
G01 X15.9309 Y16.9143
G01 X15.9368 Y16.9191
G01 X16.0096 Y16.9850
G01 X16.0150 Y16.9904
G01 X16.0809 Y17.0632
G01 X16.0857 Y17.0691
G01 X16.1442 Y17.1479
G01 X16.1485 Y17.1543
G01 X16.1989 Y17.2385
G01 X16.2025 Y17.2452
G01 X16.2445 Y17.3339
G01 X16.2474 Y17.3410
G01 X16.2805 Y17.4334
G01 X16.2827 Y17.4407
G01 X16.3065 Y17.5359
G01 X16.3079 Y17.5425
G01 X16.3123 Y17.5718
G01 X21.6762 Y17.5718
G01 X23.4840 Y15.7640
G01 X23.4941 Y15.7548
G01 X23.5000 Y15.7499
G01 X23.5079 Y15.7441
G01 X23.5227 Y15.7348
G01 X23.5294 Y15.7312
G01 X23.5454 Y15.7240
G01 X23.5620 Y15.7185
G01 X23.5781 Y15.7148
G01 X23.5887 Y15.7132
G01 X23.5964 Y15.7124
G01 X23.6100 Y15.7118
G01 X31.7358 Y15.7118
G01 X31.7458 Y15.6444
G01 X31.7473 Y15.6369
G01 X31.7759 Y15.5227
G01 X31.7781 Y15.5153
G01 X31.8178 Y15.4045
G01 X31.8207 Y15.3974
G01 X31.8711 Y15.2909
G01 X31.8747 Y15.2842
G01 X31.9352 Y15.1832
G01 X31.9395 Y15.1768
G01 X32.0097 Y15.0822
G01 X32.0145 Y15.0763
G01 X32.0936 Y14.9890
G01 X32.0990 Y14.9836
G01 X32.1863 Y14.9045
G01 X32.1922 Y14.8997
G01 X32.2868 Y14.8295
G01 X32.2932 Y14.8252
G01 X32.3942 Y14.7647
G01 X32.4009 Y14.7611
G01 X32.5074 Y14.7107
G01 X32.5145 Y14.7078
G01 X32.6253 Y14.6681
G01 X32.6327 Y14.6659
G01 X32.7469 Y14.6373
G01 X32.7535 Y14.6359
G01 X32.8709 Y14.6185
G01 X32.8785 Y14.6178
G01 X32.9962 Y14.6120
G01 X33.0038 Y14.6120
G01 X33.1215 Y14.6178
G01 X33.1291 Y14.6185
G01 X33.2456 Y14.6358
G01 X33.2531 Y14.6373
G01 X33.3673 Y14.6659
G01 X33.3747 Y14.6681
G01 X33.4855 Y14.7078
G01 X33.4926 Y14.7107
G01 X33.5991 Y14.7611
G01 X33.6058 Y14.7647
G01 X33.7068 Y14.8252
G01 X33.7127 Y14.8291
G01 X33.8078 Y14.8997
G01 X33.8137 Y14.9045
G01 X33.9010 Y14.9836
G01 X33.9064 Y14.9890
G01 X33.9855 Y15.0763
G01 X33.9903 Y15.0822
G01 X34.0605 Y15.1768
G01 X34.0648 Y15.1832
G01 X34.1253 Y15.2842
G01 X34.1289 Y15.2909
G01 X34.1793 Y15.3974
G01 X34.1822 Y15.4045
G01 X34.2219 Y15.5153
G01 X34.2241 Y15.5227
G01 X34.2527 Y15.6369
G01 X34.2541 Y15.6435
G01 X34.2715 Y15.7609
G01 X34.2722 Y15.7685
G01 X34.2780 Y15.8862
G01 X34.2780 Y15.8938
G01 X34.2722 Y16.0115
G01 X34.2715 Y16.0191
G01 X34.2542 Y16.1356
G01 X34.2527 Y16.1431
G01 X34.2241 Y16.2573
G01 X34.2219 Y16.2647
G01 X34.1822 Y16.3755
G01 X34.1793 Y16.3826
G01 X34.1289 Y16.4891
G01 X34.1253 Y16.4958
G01 X34.0648 Y16.5968
G01 X34.0609 Y16.6027
G01 X33.9903 Y16.6978
G01 X33.9855 Y16.7037
G01 X33.9064 Y16.7910
G01 X33.9010 Y16.7964
G01 X33.8137 Y16.8755
G01 X33.8078 Y16.8803
G01 X33.7132 Y16.9505
G01 X33.7068 Y16.9548
G01 X33.6058 Y17.0153
G01 X33.5991 Y17.0189
G01 X33.4926 Y17.0693
G01 X33.4855 Y17.0722
G01 X33.3747 Y17.1119
G01 X33.3673 Y17.1141
G01 X33.2531 Y17.1427
G01 X33.2465 Y17.1441
G01 X33.1291 Y17.1615
G01 X33.1215 Y17.1622
G01 X33.0038 Y17.1680
G01 X32.9962 Y17.1680
G01 X32.8785 Y17.1622
G01 X32.8709 Y17.1615
G01 X32.7544 Y17.1442
G01 X32.7469 Y17.1427
G01 X32.6327 Y17.1141
G01 X32.6253 Y17.1119
G01 X32.5145 Y17.0722
G01 X32.5074 Y17.0693
G01 X32.4009 Y17.0189
G01 X32.3942 Y17.0153
G01 X32.2932 Y16.9548
G01 X32.2873 Y16.9509
G01 X32.1922 Y16.8803
G01 X32.1863 Y16.8755
G01 X32.0990 Y16.7964
G01 X32.0936 Y16.7910
G01 X32.0145 Y16.7037
G01 X32.0097 Y16.6978
G01 X31.9395 Y16.6032
G01 X31.9352 Y16.5968
G01 X31.8747 Y16.4958
G01 X31.8711 Y16.4891
G01 X31.8207 Y16.3826
G01 X31.8178 Y16.3755
G01 X31.7781 Y16.2647
G01 X31.7759 Y16.2573
G01 X31.7473 Y16.1431
G01 X31.7458 Y16.1356
G01 X31.7358 Y16.0682
G01 X23.6838 Y16.0682
G01 X21.8760 Y17.8760
G01 X21.8659 Y17.8852
G01 X21.8521 Y17.8959
G01 X21.8457 Y17.9002
G01 X21.8306 Y17.9088
G01 X21.8217 Y17.9130
G01 X21.8054 Y17.9193
G01 X21.7980 Y17.9215
G01 X21.7819 Y17.9252
G01 X21.7636 Y17.9276
G01 X21.7500 Y17.9282
G01 X16.3123 Y17.9282
G01 X16.3080 Y17.9565
G01 X16.3065 Y17.9641
G01 X16.2827 Y18.0593
G01 X16.2805 Y18.0666
G01 X16.2474 Y18.1590
G01 X16.2445 Y18.1661
G01 X16.2025 Y18.2548
G01 X16.1989 Y18.2615
G01 X16.1485 Y18.3457
G01 X16.1446 Y18.3516
G01 X16.0857 Y18.4309
G01 X16.0809 Y18.4368
G01 X16.0150 Y18.5096
G01 X16.0096 Y18.5150
G01 X15.9368 Y18.5809
G01 X15.9309 Y18.5857
G01 X15.8521 Y18.6442
G01 X15.8457 Y18.6485
G01 X15.7615 Y18.6989
G01 X15.7548 Y18.7025
G01 X15.6661 Y18.7445
G01 X15.6590 Y18.7474
G01 X15.5666 Y18.7805
G01 X15.5593 Y18.7827
G01 X15.4641 Y18.8065
G01 X15.4575 Y18.8079
G01 X15.3595 Y18.8224
G01 X15.3518 Y18.8232
G01 X15.2538 Y18.8280
G01 X15.2462 Y18.8280
G01 X15.1482 Y18.8232
G01 X15.1405 Y18.8224
G01 X15.0435 Y18.8080
G01 X15.0359 Y18.8065
G01 X14.9407 Y18.7827
G01 X14.9334 Y18.7805
G01 X14.8410 Y18.7474
G01 X14.8339 Y18.7445
G01 X14.7452 Y18.7025
G01 X14.7385 Y18.6989
G01 X14.6543 Y18.6485
G01 X14.6484 Y18.6446
G01 X14.5691 Y18.5857
G01 X14.5632 Y18.5809
G01 X14.4904 Y18.5150
G01 X14.4850 Y18.5096
G01 X14.4191 Y18.4368
G01 X14.4143 Y18.4309
G01 X14.3558 Y18.3521
G01 X14.3515 Y18.3457
G01 X14.3011 Y18.2615
G01 X14.2975 Y18.2548
G01 X14.2555 Y18.1661
G01 X14.2526 Y18.1590
G01 X14.2195 Y18.0666
G01 X14.2173 Y18.0593
G01 X14.1935 Y17.9641
G01 X14.1920 Y17.9565
G01 X14.1776 Y17.8595
G01 X14.1769 Y17.8518
G00 Z2.0000
G00 X14.0445 Y17.8583
G01 F60.00
G01 Z-2.4000
G01 F120.00
G01 X14.0442 Y17.8584
G01 X14.0394 Y17.7603
G01 X14.0394 Y17.7397
G01 X14.0442 Y17.6416
G01 X14.0462 Y17.6210
G01 X14.0610 Y17.5214
G01 X14.0647 Y17.5037
G01 X14.0885 Y17.4085
G01 X14.0945 Y17.3887
G01 X14.1276 Y17.2963
G01 X14.1355 Y17.2772
G01 X14.1775 Y17.1884
G01 X14.1872 Y17.1702
G01 X14.2377 Y17.0860
G01 X14.2481 Y17.0702
G01 X14.3076 Y16.9900
G01 X14.3210 Y16.9743
G01 X14.3207 Y16.9740
G01 X14.3866 Y16.9013
G01 X14.4013 Y16.8866
G01 X14.4740 Y16.8207
G01 X14.4900 Y16.8076
G01 X14.5688 Y16.7492
G01 X14.5860 Y16.7377
G01 X14.6702 Y16.6872
G01 X14.6884 Y16.6775
G01 X14.7772 Y16.6355
G01 X14.7963 Y16.6276
G01 X14.8887 Y16.5945
G01 X14.9085 Y16.5885
G01 X15.0037 Y16.5647
G01 X15.0214 Y16.5610
G01 X15.1210 Y16.5462
G01 X15.1417 Y16.5445
G01 X15.1416 Y16.5442
G01 X15.2397 Y16.5394
G01 X15.2603 Y16.5394
G01 X15.3584 Y16.5442
G01 X15.3790 Y16.5462
G01 X15.4760 Y16.5606
G01 X15.4963 Y16.5647
G01 X15.5915 Y16.5885
G01 X15.6113 Y16.5945
G01 X15.7037 Y16.6276
G01 X15.7228 Y16.6355
G01 X15.8116 Y16.6775
G01 X15.8298 Y16.6872
G01 X15.9140 Y16.7377
G01 X15.9298 Y16.7481
G01 X16.0100 Y16.8076
G01 X16.0257 Y16.8210
G01 X16.0260 Y16.8207
G01 X16.0987 Y16.8866
G01 X16.1134 Y16.9013
G01 X16.1793 Y16.9740
G01 X16.1924 Y16.9900
G01 X16.2508 Y17.0688
G01 X16.2623 Y17.0860
G01 X16.3128 Y17.1702
G01 X16.3225 Y17.1884
G01 X16.3645 Y17.2772
G01 X16.3724 Y17.2963
G01 X16.4055 Y17.3887
G01 X16.4115 Y17.4085
G01 X16.4192 Y17.4391
G01 X21.6212 Y17.4391
G01 X23.3901 Y15.6701
G01 X23.4049 Y15.6564
G01 X23.4209 Y15.6433
G01 X23.4288 Y15.6374
G01 X23.4460 Y15.6259
G01 X23.4544 Y15.6209
G01 X23.4727 Y15.6111
G01 X23.4816 Y15.6069
G01 X23.5007 Y15.5990
G01 X23.5099 Y15.5957
G01 X23.5297 Y15.5897
G01 X23.5392 Y15.5873
G01 X23.5570 Y15.5837
G01 X23.5693 Y15.5818
G01 X23.5899 Y15.5802
G01 X23.5898 Y15.5798
G01 X23.6100 Y15.5791
G01 X31.6249 Y15.5791
G01 X31.6471 Y15.4904
G01 X31.6531 Y15.4706
G01 X31.6928 Y15.3597
G01 X31.7007 Y15.3406
G01 X31.7511 Y15.2342
G01 X31.7608 Y15.2159
G01 X31.8214 Y15.1149
G01 X31.8318 Y15.0991
G01 X31.9030 Y15.0031
G01 X31.9164 Y14.9874
G01 X31.9161 Y14.9871
G01 X31.9952 Y14.8999
G01 X32.0099 Y14.8852
G01 X32.0971 Y14.8061
G01 X32.1131 Y14.7930
G01 X32.2077 Y14.7229
G01 X32.2249 Y14.7114
G01 X32.3259 Y14.6508
G01 X32.3442 Y14.6411
G01 X32.4506 Y14.5907
G01 X32.4697 Y14.5828
G01 X32.5806 Y14.5431
G01 X32.6004 Y14.5371
G01 X32.7147 Y14.5085
G01 X32.7324 Y14.5049
G01 X32.8514 Y14.4872
G01 X32.8720 Y14.4855
G01 X32.8720 Y14.4852
G01 X32.9897 Y14.4794
G01 X33.0103 Y14.4794
G01 X33.1280 Y14.4852
G01 X33.1486 Y14.4872
G01 X33.2650 Y14.5045
G01 X33.2853 Y14.5085
G01 X33.3996 Y14.5371
G01 X33.4194 Y14.5431
G01 X33.5303 Y14.5828
G01 X33.5494 Y14.5907
G01 X33.6558 Y14.6411
G01 X33.6741 Y14.6508
G01 X33.7751 Y14.7114
G01 X33.7909 Y14.7218
G01 X33.8869 Y14.7930
G01 X33.9026 Y14.8064
G01 X33.9029 Y14.8061
G01 X33.9901 Y14.8852
G01 X34.0048 Y14.8999
G01 X34.0839 Y14.9871
G01 X34.0970 Y15.0031
G01 X34.1671 Y15.0977
G01 X34.1786 Y15.1149
G01 X34.2392 Y15.2159
G01 X34.2489 Y15.2342
G01 X34.2993 Y15.3406
G01 X34.3072 Y15.3597
G01 X34.3469 Y15.4706
G01 X34.3529 Y15.4904
G01 X34.3815 Y15.6047
G01 X34.3851 Y15.6224
G01 X34.4028 Y15.7414
G01 X34.4045 Y15.7620
G01 X34.4048 Y15.7620
G01 X34.4106 Y15.8797
G01 X34.4106 Y15.9003
G01 X34.4048 Y16.0180
G01 X34.4028 Y16.0386
G01 X34.3855 Y16.1550
G01 X34.3815 Y16.1753
G01 X34.3529 Y16.2896
G01 X34.3469 Y16.3094
G01 X34.3072 Y16.4203
G01 X34.2993 Y16.4394
G01 X34.2489 Y16.5458
G01 X34.2392 Y16.5641
G01 X34.1786 Y16.6651
G01 X34.1682 Y16.6809
G01 X34.0970 Y16.7769
G01 X34.0836 Y16.7926
G01 X34.0839 Y16.7929
G01 X34.0048 Y16.8801
G01 X33.9901 Y16.8948
G01 X33.9029 Y16.9739
G01 X33.8869 Y16.9870
G01 X33.7923 Y17.0571
G01 X33.7751 Y17.0686
G01 X33.6741 Y17.1292
G01 X33.6558 Y17.1389
G01 X33.5494 Y17.1893
G01 X33.5303 Y17.1972
G01 X33.4194 Y17.2369
G01 X33.3996 Y17.2429
G01 X33.2853 Y17.2715
G01 X33.2676 Y17.2751
G01 X33.1486 Y17.2928
G01 X33.1280 Y17.2945
G01 X33.1280 Y17.2948
G01 X33.0103 Y17.3006
G01 X32.9897 Y17.3006
G01 X32.8720 Y17.2948
G01 X32.8514 Y17.2928
G01 X32.7350 Y17.2755
G01 X32.7147 Y17.2715
G01 X32.6004 Y17.2429
G01 X32.5806 Y17.2369
G01 X32.4697 Y17.1972
G01 X32.4506 Y17.1893
G01 X32.3442 Y17.1389
G01 X32.3259 Y17.1292
G01 X32.2249 Y17.0686
G01 X32.2091 Y17.0582
G01 X32.1131 Y16.9870
G01 X32.0974 Y16.9736
G01 X32.0971 Y16.9739
G01 X32.0099 Y16.8948
G01 X31.9952 Y16.8801
G01 X31.9161 Y16.7929
G01 X31.9030 Y16.7769
G01 X31.8329 Y16.6823
G01 X31.8214 Y16.6651
G01 X31.7608 Y16.5641
G01 X31.7511 Y16.5458
G01 X31.7007 Y16.4394
G01 X31.6928 Y16.4203
G01 X31.6531 Y16.3094
G01 X31.6471 Y16.2896
G01 X31.6249 Y16.2009
G01 X23.7388 Y16.2009
G01 X21.9699 Y17.9699
G01 X21.9551 Y17.9836
G01 X21.9391 Y17.9967
G01 X21.9312 Y18.0026
G01 X21.9140 Y18.0141
G01 X21.9056 Y18.0191
G01 X21.8873 Y18.0289
G01 X21.8784 Y18.0331
G01 X21.8593 Y18.0410
G01 X21.8501 Y18.0443
G01 X21.8303 Y18.0503
G01 X21.8208 Y18.0527
G01 X21.8030 Y18.0563
G01 X21.7907 Y18.0582
G01 X21.7701 Y18.0598
G01 X21.7702 Y18.0602
G01 X21.7500 Y18.0609
G01 X16.4192 Y18.0609
G01 X16.4115 Y18.0915
G01 X16.4055 Y18.1113
G01 X16.3724 Y18.2037
G01 X16.3645 Y18.2228
G01 X16.3225 Y18.3116
G01 X16.3128 Y18.3298
G01 X16.2623 Y18.4140
G01 X16.2519 Y18.4298
G01 X16.1924 Y18.5100
G01 X16.1790 Y18.5257
G01 X16.1793 Y18.5260
G01 X16.1134 Y18.5987
G01 X16.0987 Y18.6134
G01 X16.0260 Y18.6793
G01 X16.0100 Y18.6924
G01 X15.9312 Y18.7508
G01 X15.9140 Y18.7623
G01 X15.8298 Y18.8128
G01 X15.8116 Y18.8225
G01 X15.7228 Y18.8645
G01 X15.7037 Y18.8724
G01 X15.6113 Y18.9055
G01 X15.5915 Y18.9115
G01 X15.4963 Y18.9353
G01 X15.4786 Y18.9390
G01 X15.3790 Y18.9538
G01 X15.3583 Y18.9555
G01 X15.3584 Y18.9558
G01 X15.2603 Y18.9606
G01 X15.2397 Y18.9606
G01 X15.1416 Y18.9558
G01 X15.1210 Y18.9538
G01 X15.0240 Y18.9394
G01 X15.0037 Y18.9353
G01 X14.9085 Y18.9115
G01 X14.8887 Y18.9055
G01 X14.7963 Y18.8724
G01 X14.7772 Y18.8645
G01 X14.6884 Y18.8225
G01 X14.6702 Y18.8128
G01 X14.5860 Y18.7623
G01 X14.5702 Y18.7519
G01 X14.4900 Y18.6924
G01 X14.4743 Y18.6790
G01 X14.4740 Y18.6793
G01 X14.4013 Y18.6134
G01 X14.3866 Y18.5987
G01 X14.3207 Y18.5260
G01 X14.3076 Y18.5100
G01 X14.2492 Y18.4312
G01 X14.2377 Y18.4140
G01 X14.1872 Y18.3298
G01 X14.1775 Y18.3116
G01 X14.1355 Y18.2228
G01 X14.1276 Y18.2037
G01 X14.0945 Y18.1113
G01 X14.0885 Y18.0915
G01 X14.0647 Y17.9963
G01 X14.0610 Y17.9786
G01 X14.0462 Y17.8790
G01 X14.0445 Y17.8583
G00 Z2.0000
G00 X13.9604 Y17.8515
G01 F60.00
G01 Z-2.4000
G01 F120.00
G01 X13.9604 Y17.6485
G01 X13.9921 Y17.4480
G01 X14.0549 Y17.2550
G01 X14.1470 Y17.0741
G01 X14.2663 Y16.9099
G01 X14.4099 Y16.7663
G01 X14.5741 Y16.6470
G01 X14.7549 Y16.5549
G01 X14.9480 Y16.4921
G01 X15.1485 Y16.4604
G01 X15.3515 Y16.4604
G01 X15.5520 Y16.4921
G01 X15.7450 Y16.5549
G01 X15.9259 Y16.6470
G01 X16.0901 Y16.7663
G01 X16.2337 Y16.9099
G01 X16.3530 Y17.0741
G01 X16.4057 Y17.1775
G01 X16.4148 Y17.1936
G01 X16.4252 Y17.2088
G01 X16.4403 Y17.2266
G01 X16.4883 Y17.2774
G01 X16.5053 Y17.2936
G01 X16.5241 Y17.3077
G01 X16.5444 Y17.3197
G01 X16.5650 Y17.3291
G01 X16.5865 Y17.3361
G01 X16.6490 Y17.3531
G01 X16.6671 Y17.3571
G01 X16.6855 Y17.3596
G01 X16.7041 Y17.3604
G01 X21.4499 Y17.3604
G01 X21.4699 Y17.3594
G01 X21.4898 Y17.3566
G01 X21.5093 Y17.3518
G01 X21.5764 Y17.3321
G01 X21.5951 Y17.3257
G01 X21.6131 Y17.3175
G01 X21.6303 Y17.3076
G01 X21.6493 Y17.2940
G01 X21.6699 Y17.2774
G01 X21.6867 Y17.2623
G01 X23.3708 Y15.5782
G01 X23.4596 Y15.5269
G01 X23.5587 Y15.5004
G01 X31.3253 Y15.5004
G01 X31.3453 Y15.4994
G01 X31.3652 Y15.4966
G01 X31.3847 Y15.4918
G01 X31.4517 Y15.4721
G01 X31.4706 Y15.4656
G01 X31.4888 Y15.4573
G01 X31.5061 Y15.4474
G01 X31.5225 Y15.4357
G01 X31.5378 Y15.4225
G01 X31.5517 Y15.4079
G01 X31.5974 Y15.3551
G01 X31.6084 Y15.3413
G01 X31.6182 Y15.3267
G01 X31.6267 Y15.3112
G01 X31.6314 Y15.3012
G01 X31.6611 Y15.2297
G01 X31.7588 Y15.0606
G01 X31.8776 Y14.9057
G01 X32.0157 Y14.7676
G01 X32.1706 Y14.6488
G01 X32.3397 Y14.5511
G01 X32.5201 Y14.4764
G01 X32.7088 Y14.4259
G01 X32.9024 Y14.4004
G01 X33.0976 Y14.4004
G01 X33.2912 Y14.4259
G01 X33.4799 Y14.4764
G01 X33.6603 Y14.5511
G01 X33.8294 Y14.6488
G01 X33.9843 Y14.7676
G01 X34.1224 Y14.9057
G01 X34.2412 Y15.0606
G01 X34.3389 Y15.2297
G01 X34.4136 Y15.4101
G01 X34.4641 Y15.5988
G01 X34.4896 Y15.7924
G01 X34.4896 Y15.9876
G01 X34.4641 Y16.1812
G01 X34.4136 Y16.3699
G01 X34.3389 Y16.5503
G01 X34.2412 Y16.7194
G01 X34.1224 Y16.8743
G01 X33.9843 Y17.0124
G01 X33.8294 Y17.1312
G01 X33.6603 Y17.2289
G01 X33.4799 Y17.3036
G01 X33.2912 Y17.3541
G01 X33.0976 Y17.3796
G01 X32.9024 Y17.3796
G01 X32.7088 Y17.3541
G01 X32.5201 Y17.3036
G01 X32.3397 Y17.2289
G01 X32.1706 Y17.1312
G01 X32.0157 Y17.0124
G01 X31.8776 Y16.8743
G01 X31.7588 Y16.7194
G01 X31.6611 Y16.5503
G01 X31.6347 Y16.4864
G01 X31.6344 Y16.4865
G01 X31.6292 Y16.4743
G01 X31.6177 Y16.4538
G01 X31.6040 Y16.4347
G01 X31.5602 Y16.3803
G01 X31.5451 Y16.3635
G01 X31.5306 Y16.3504
G01 X31.5150 Y16.3386
G01 X31.4984 Y16.3283
G01 X31.4808 Y16.3196
G01 X31.4626 Y16.3126
G01 X31.3923 Y16.2892
G01 X31.3730 Y16.2842
G01 X31.3533 Y16.2810
G01 X31.3335 Y16.2797
G01 X31.3253 Y16.2796
G01 X23.9101 Y16.2796
G01 X23.8901 Y16.2806
G01 X23.8702 Y16.2834
G01 X23.8507 Y16.2882
G01 X23.7836 Y16.3079
G01 X23.7649 Y16.3143
G01 X23.7469 Y16.3225
G01 X23.7297 Y16.3324
G01 X23.7107 Y16.3460
G01 X23.6901 Y16.3626
G01 X23.6733 Y16.3777
G01 X21.9892 Y18.0618
G01 X21.9004 Y18.1131
G01 X21.8013 Y18.1396
G01 X16.7041 Y18.1396
G01 X16.6840 Y18.1406
G01 X16.6642 Y18.1434
G01 X16.6447 Y18.1482
G01 X16.5776 Y18.1679
G01 X16.5554 Y18.1757
G01 X16.5342 Y18.1861
G01 X16.5144 Y18.1987
G01 X16.4967 Y18.2128
G01 X16.4807 Y18.2287
G01 X16.4372 Y18.2767
G01 X16.4247 Y18.2919
G01 X16.4146 Y18.3068
G01 X16.4057 Y18.3225
G01 X16.3530 Y18.4259
G01 X16.2337 Y18.5901
G01 X16.0901 Y18.7337
G01 X15.9259 Y18.8530
G01 X15.7450 Y18.9451
G01 X15.5520 Y19.0079
G01 X15.3515 Y19.0396
G01 X15.1485 Y19.0396
G01 X14.9480 Y19.0079
G01 X14.7549 Y18.9451
G01 X14.5741 Y18.8530
G01 X14.4099 Y18.7337
G01 X14.2663 Y18.5901
G01 X14.1470 Y18.4259
G01 X14.0549 Y18.2451
G01 X13.9921 Y18.0520
G01 X13.9604 Y17.8515
G00 Z2.0000
G00 X13.8276 Y17.8620
G01 F60.00
G01 Z-2.4000
G01 F120.00
G01 X13.8276 Y17.6380
G01 X13.8626 Y17.4169
G01 X13.9318 Y17.2040
G01 X14.0335 Y17.0045
G01 X14.1651 Y16.8234
G01 X14.3234 Y16.6651
G01 X14.5045 Y16.5335
G01 X14.7040 Y16.4318
G01 X14.9169 Y16.3626
G01 X15.1380 Y16.3276
G01 X15.3620 Y16.3276
G01 X15.5831 Y16.3626
G01 X15.7960 Y16.4318
G01 X15.9955 Y16.5335
G01 X16.1766 Y16.6651
G01 X16.3349 Y16.8234
G01 X16.4665 Y17.0045
G01 X16.5240 Y17.1173
G01 X16.5274 Y17.1232
G01 X16.5312 Y17.1288
G01 X16.5368 Y17.1354
G01 X16.5848 Y17.1862
G01 X16.5911 Y17.1922
G01 X16.5981 Y17.1975
G01 X16.6056 Y17.2019
G01 X16.6132 Y17.2054
G01 X16.6212 Y17.2080
G01 X16.6837 Y17.2249
G01 X16.6904 Y17.2264
G01 X16.6972 Y17.2273
G01 X16.7041 Y17.2276
G01 X21.4499 Y17.2276
G01 X21.4573 Y17.2272
G01 X21.4647 Y17.2262
G01 X21.4719 Y17.2244
G01 X21.5389 Y17.2048
G01 X21.5459 Y17.2024
G01 X21.5526 Y17.1993
G01 X21.5589 Y17.1957
G01 X21.5659 Y17.1906
G01 X21.5866 Y17.1740
G01 X21.5928 Y17.1684
G01 X23.2892 Y15.4720
G01 X23.4084 Y15.4032
G01 X23.5412 Y15.3676
G01 X31.3253 Y15.3676
G01 X31.3327 Y15.3672
G01 X31.3401 Y15.3662
G01 X31.3473 Y15.3644
G01 X31.4143 Y15.3448
G01 X31.4213 Y15.3423
G01 X31.4280 Y15.3393
G01 X31.4344 Y15.3356
G01 X31.4405 Y15.3312
G01 X31.4462 Y15.3264
G01 X31.4513 Y15.3210
G01 X31.4971 Y15.2682
G01 X31.5012 Y15.2630
G01 X31.5048 Y15.2576
G01 X31.5079 Y15.2519
G01 X31.5114 Y15.2441
G01 X31.5418 Y15.1709
G01 X31.6481 Y14.9867
G01 X31.7776 Y14.8180
G01 X31.9280 Y14.6676
G01 X32.0967 Y14.5381
G01 X32.2809 Y14.4318
G01 X32.4774 Y14.3504
G01 X32.6828 Y14.2954
G01 X32.8937 Y14.2676
G01 X33.1063 Y14.2676
G01 X33.3172 Y14.2954
G01 X33.5226 Y14.3504
G01 X33.7191 Y14.4318
G01 X33.9033 Y14.5381
G01 X34.0720 Y14.6676
G01 X34.2224 Y14.8180
G01 X34.3519 Y14.9867
G01 X34.4582 Y15.1709
G01 X34.5396 Y15.3674
G01 X34.5946 Y15.5728
G01 X34.6224 Y15.7837
G01 X34.6224 Y15.9963
G01 X34.5946 Y16.2072
G01 X34.5396 Y16.4126
G01 X34.4582 Y16.6091
G01 X34.3519 Y16.7933
G01 X34.2224 Y16.9620
G01 X34.0720 Y17.1124
G01 X33.9033 Y17.2419
G01 X33.7191 Y17.3482
G01 X33.5226 Y17.4296
G01 X33.3172 Y17.4846
G01 X33.1063 Y17.5124
G01 X32.8937 Y17.5124
G01 X32.6828 Y17.4846
G01 X32.4774 Y17.4296
G01 X32.2809 Y17.3482
G01 X32.0967 Y17.2419
G01 X31.9280 Y17.1124
G01 X31.7776 Y16.9620
G01 X31.6481 Y16.7933
G01 X31.5418 Y16.6091
G01 X31.5120 Y16.5372
G01 X31.5100 Y16.5327
G01 X31.5057 Y16.5251
G01 X31.5006 Y16.5180
G01 X31.4568 Y16.4636
G01 X31.4512 Y16.4574
G01 X31.4459 Y16.4525
G01 X31.4401 Y16.4482
G01 X31.4339 Y16.4444
G01 X31.4274 Y16.4411
G01 X31.4207 Y16.4385
G01 X31.3529 Y16.4160
G01 X31.3457 Y16.4141
G01 X31.3385 Y16.4130
G01 X31.3253 Y16.4124
G01 X23.9101 Y16.4124
G01 X23.9027 Y16.4128
G01 X23.8953 Y16.4138
G01 X23.8881 Y16.4156
G01 X23.8211 Y16.4352
G01 X23.8141 Y16.4376
G01 X23.8074 Y16.4407
G01 X23.8011 Y16.4443
G01 X23.7941 Y16.4494
G01 X23.7734 Y16.4660
G01 X23.7672 Y16.4716
G01 X22.0708 Y18.1680
G01 X21.9516 Y18.2368
G01 X21.8188 Y18.2724
G01 X16.7041 Y18.2724
G01 X16.6966 Y18.2728
G01 X16.6893 Y18.2738
G01 X16.6821 Y18.2756
G01 X16.6150 Y18.2952
G01 X16.6068 Y18.2982
G01 X16.5990 Y18.3020
G01 X16.5916 Y18.3067
G01 X16.5851 Y18.3119
G01 X16.5791 Y18.3178
G01 X16.5357 Y18.3658
G01 X16.5310 Y18.3714
G01 X16.5273 Y18.3769
G01 X16.5240 Y18.3827
G01 X16.4665 Y18.4955
G01 X16.3349 Y18.6766
G01 X16.1766 Y18.8349
G01 X15.9955 Y18.9665
G01 X15.7960 Y19.0682
G01 X15.5831 Y19.1374
G01 X15.3620 Y19.1724
G01 X15.1380 Y19.1724
G01 X14.9169 Y19.1374
G01 X14.7040 Y19.0682
G01 X14.5045 Y18.9665
G01 X14.3234 Y18.8349
G01 X14.1651 Y18.6766
G01 X14.1090 Y18.5995
G01 X14.0335 Y18.4955
G01 X13.9318 Y18.2960
G01 X13.8626 Y18.0831
G01 X13.8276 Y17.8620
G00 Z2.0000
G00 X31.5955 Y23.6380
G01 F60.00
G01 Z-2.4000
G01 F120.00
G01 X31.5952 Y23.6380
G01 X31.5894 Y23.5203
G01 X31.5894 Y23.4997
G01 X31.5952 Y23.3820
G01 X31.5972 Y23.3614
G01 X31.6149 Y23.2424
G01 X31.6185 Y23.2247
G01 X31.6471 Y23.1104
G01 X31.6531 Y23.0906
G01 X31.6928 Y22.9797
G01 X31.7007 Y22.9606
G01 X31.7511 Y22.8542
G01 X31.7608 Y22.8359
G01 X31.8214 Y22.7349
G01 X31.8318 Y22.7191
G01 X31.9030 Y22.6231
G01 X31.9164 Y22.6074
G01 X31.9161 Y22.6071
G01 X31.9952 Y22.5199
G01 X32.0099 Y22.5052
G01 X32.0971 Y22.4261
G01 X32.1131 Y22.4130
G01 X32.2077 Y22.3429
G01 X32.2249 Y22.3314
G01 X32.3259 Y22.2708
G01 X32.3442 Y22.2611
G01 X32.4506 Y22.2107
G01 X32.4697 Y22.2028
G01 X32.5806 Y22.1631
G01 X32.6004 Y22.1571
G01 X32.7147 Y22.1285
G01 X32.7324 Y22.1249
G01 X32.8514 Y22.1072
G01 X32.8720 Y22.1055
G01 X32.8720 Y22.1052
G01 X32.9897 Y22.0994
G01 X33.0103 Y22.0994
G01 X33.1280 Y22.1052
G01 X33.1486 Y22.1072
G01 X33.2650 Y22.1245
G01 X33.2853 Y22.1285
G01 X33.3996 Y22.1571
G01 X33.4194 Y22.1631
G01 X33.5303 Y22.2028
G01 X33.5494 Y22.2107
G01 X33.6558 Y22.2611
G01 X33.6741 Y22.2708
G01 X33.7751 Y22.3314
G01 X33.7909 Y22.3418
G01 X33.8869 Y22.4130
G01 X33.9026 Y22.4264
G01 X33.9029 Y22.4261
G01 X33.9901 Y22.5052
G01 X34.0048 Y22.5199
G01 X34.0839 Y22.6071
G01 X34.0970 Y22.6231
G01 X34.1671 Y22.7177
G01 X34.1786 Y22.7349
G01 X34.2392 Y22.8359
G01 X34.2489 Y22.8542
G01 X34.2993 Y22.9606
G01 X34.3072 Y22.9797
G01 X34.3469 Y23.0906
G01 X34.3529 Y23.1104
G01 X34.3815 Y23.2247
G01 X34.3851 Y23.2424
G01 X34.4028 Y23.3614
G01 X34.4045 Y23.3820
G01 X34.4048 Y23.3820
G01 X34.4106 Y23.4997
G01 X34.4106 Y23.5203
G01 X34.4048 Y23.6380
G01 X34.4028 Y23.6586
G01 X34.3855 Y23.7750
G01 X34.3815 Y23.7953
G01 X34.3529 Y23.9096
G01 X34.3469 Y23.9294
G01 X34.3072 Y24.0403
G01 X34.2993 Y24.0594
G01 X34.2489 Y24.1658
G01 X34.2392 Y24.1841
G01 X34.1786 Y24.2851
G01 X34.1682 Y24.3009
G01 X34.0970 Y24.3969
G01 X34.0836 Y24.4126
G01 X34.0839 Y24.4129
G01 X34.0048 Y24.5001
G01 X33.9901 Y24.5148
G01 X33.9029 Y24.5939
G01 X33.8869 Y24.6070
G01 X33.7923 Y24.6771
G01 X33.7751 Y24.6886
G01 X33.6741 Y24.7492
G01 X33.6558 Y24.7589
G01 X33.5494 Y24.8093
G01 X33.5303 Y24.8172
G01 X33.4194 Y24.8569
G01 X33.3996 Y24.8629
G01 X33.3109 Y24.8851
G01 X33.3109 Y29.6891
G01 X40.0000 Y29.6891
G01 X40.0202 Y29.6898
G01 X40.0407 Y29.6918
G01 X40.0505 Y29.6933
G01 X40.0708 Y29.6973
G01 X40.0803 Y29.6997
G01 X40.1001 Y29.7057
G01 X40.1093 Y29.7090
G01 X40.1284 Y29.7169
G01 X40.1373 Y29.7211
G01 X40.1556 Y29.7309
G01 X40.1640 Y29.7359
G01 X40.1798 Y29.7464
G01 X40.1891 Y29.7533
G01 X40.2048 Y29.7667
G01 X40.2051 Y29.7664
G01 X40.2199 Y29.7801
G01 X42.2599 Y31.8201
G01 X42.2736 Y31.8349
G01 X42.2867 Y31.8509
G01 X42.2926 Y31.8588
G01 X42.3041 Y31.8760
G01 X42.3091 Y31.8844
G01 X42.3189 Y31.9027
G01 X42.3231 Y31.9116
G01 X42.3310 Y31.9307
G01 X42.3343 Y31.9399
G01 X42.3403 Y31.9597
G01 X42.3427 Y31.9692
G01 X42.3463 Y31.9870
G01 X42.3482 Y31.9993
G01 X42.3498 Y32.0199
G01 X42.3502 Y32.0198
G01 X42.3509 Y32.0400
G01 X42.3509 Y36.8891
G01 X42.9400 Y36.8891
G01 X42.9586 Y36.8900
G01 X42.9771 Y36.8924
G01 X42.9952 Y36.8965
G01 X43.0130 Y36.9022
G01 X43.0302 Y36.9094
G01 X43.0484 Y36.9191
G01 X43.0656 Y36.9306
G01 X43.0816 Y36.9438
G01 X43.0962 Y36.9584
G01 X43.1094 Y36.9744
G01 X43.1209 Y36.9916
G01 X43.1306 Y37.0098
G01 X43.1378 Y37.0270
G01 X43.1435 Y37.0448
G01 X43.1476 Y37.0629
G01 X43.1500 Y37.0814
G01 X43.1509 Y37.1000
G01 X43.1509 Y38.9000
G01 X43.1500 Y38.9186
G01 X43.1476 Y38.9371
G01 X43.1435 Y38.9552
G01 X43.1378 Y38.9730
G01 X43.1306 Y38.9902
G01 X43.1209 Y39.0084
G01 X43.1094 Y39.0256
G01 X43.0962 Y39.0416
G01 X43.0816 Y39.0562
G01 X43.0656 Y39.0694
G01 X43.0484 Y39.0809
G01 X43.0302 Y39.0906
G01 X43.0130 Y39.0978
G01 X42.9952 Y39.1035
G01 X42.9771 Y39.1076
G01 X42.9586 Y39.1100
G01 X42.9400 Y39.1109
G01 X41.1400 Y39.1109
G01 X41.1214 Y39.1100
G01 X41.1029 Y39.1076
G01 X41.0848 Y39.1035
G01 X41.0670 Y39.0978
G01 X41.0498 Y39.0906
G01 X41.0316 Y39.0809
G01 X41.0144 Y39.0694
G01 X40.9984 Y39.0562
G01 X40.9838 Y39.0416
G01 X40.9706 Y39.0256
G01 X40.9591 Y39.0084
G01 X40.9494 Y38.9902
G01 X40.9422 Y38.9730
G01 X40.9365 Y38.9552
G01 X40.9324 Y38.9371
G01 X40.9300 Y38.9186
G01 X40.9291 Y38.9000
G01 X40.9291 Y37.1000
G01 X40.9300 Y37.0814
G01 X40.9324 Y37.0629
G01 X40.9365 Y37.0448
G01 X40.9422 Y37.0270
G01 X40.9494 Y37.0098
G01 X40.9591 Y36.9916
G01 X40.9706 Y36.9744
G01 X40.9838 Y36.9584
G01 X40.9984 Y36.9438
G01 X41.0144 Y36.9306
G01 X41.0316 Y36.9191
G01 X41.0498 Y36.9094
G01 X41.0670 Y36.9022
G01 X41.0848 Y36.8965
G01 X41.1029 Y36.8924
G01 X41.1214 Y36.8900
G01 X41.1400 Y36.8891
G01 X41.7291 Y36.8891
G01 X41.7291 Y32.1688
G01 X39.8712 Y30.3109
G01 X33.0000 Y30.3109
G01 X32.9798 Y30.3102
G01 X32.9593 Y30.3082
G01 X32.9495 Y30.3067
G01 X32.9292 Y30.3027
G01 X32.9197 Y30.3003
G01 X32.8999 Y30.2943
G01 X32.8907 Y30.2910
G01 X32.8716 Y30.2831
G01 X32.8627 Y30.2789
G01 X32.8444 Y30.2691
G01 X32.8360 Y30.2641
G01 X32.8188 Y30.2526
G01 X32.8109 Y30.2467
G01 X32.7952 Y30.2333
G01 X32.7949 Y30.2336
G01 X32.7876 Y30.2270
G01 X32.7730 Y30.2124
G01 X32.7664 Y30.2051
G01 X32.7533 Y30.1891
G01 X32.7474 Y30.1812
G01 X32.7359 Y30.1640
G01 X32.7309 Y30.1556
G01 X32.7211 Y30.1373
G01 X32.7169 Y30.1284
G01 X32.7090 Y30.1093
G01 X32.7057 Y30.1001
G01 X32.6997 Y30.0803
G01 X32.6973 Y30.0708
G01 X32.6937 Y30.0530
G01 X32.6918 Y30.0407
G01 X32.6902 Y30.0201
G01 X32.6898 Y30.0202
G01 X32.6891 Y30.0000
G01 X32.6891 Y24.8851
G01 X32.6004 Y24.8629
G01 X32.5806 Y24.8569
G01 X32.4697 Y24.8172
G01 X32.4506 Y24.8093
G01 X32.3442 Y24.7589
G01 X32.3259 Y24.7492
G01 X32.2249 Y24.6886
G01 X32.2091 Y24.6782
G01 X32.1131 Y24.6070
G01 X32.0974 Y24.5936
G01 X32.0971 Y24.5939
G01 X32.0099 Y24.5148
G01 X31.9952 Y24.5001
G01 X31.9161 Y24.4129
G01 X31.9030 Y24.3969
G01 X31.8329 Y24.3023
G01 X31.8214 Y24.2851
G01 X31.7608 Y24.1841
G01 X31.7511 Y24.1658
G01 X31.7007 Y24.0594
G01 X31.6928 Y24.0403
G01 X31.6531 Y23.9294
G01 X31.6471 Y23.9096
G01 X31.6185 Y23.7953
G01 X31.6149 Y23.7776
G01 X31.5972 Y23.6586
G01 X31.5955 Y23.6380
G00 Z2.0000
G00 X31.7279 Y23.6314
G01 F60.00
G01 Z-2.4000
G01 F120.00
G01 X31.7220 Y23.5138
G01 X31.7220 Y23.5062
G01 X31.7278 Y23.3885
G01 X31.7285 Y23.3809
G01 X31.7459 Y23.2635
G01 X31.7473 Y23.2569
G01 X31.7759 Y23.1427
G01 X31.7781 Y23.1353
G01 X31.8178 Y23.0245
G01 X31.8207 Y23.0174
G01 X31.8711 Y22.9109
G01 X31.8747 Y22.9042
G01 X31.9352 Y22.8032
G01 X31.9391 Y22.7973
G01 X32.0097 Y22.7022
G01 X32.0145 Y22.6963
G01 X32.0936 Y22.6090
G01 X32.0990 Y22.6036
G01 X32.1863 Y22.5245
G01 X32.1922 Y22.5197
G01 X32.2868 Y22.4495
G01 X32.2932 Y22.4452
G01 X32.3942 Y22.3847
G01 X32.4009 Y22.3811
G01 X32.5074 Y22.3307
G01 X32.5145 Y22.3278
G01 X32.6253 Y22.2881
G01 X32.6327 Y22.2859
G01 X32.7469 Y22.2573
G01 X32.7544 Y22.2558
G01 X32.8709 Y22.2385
G01 X32.8785 Y22.2378
G01 X32.9962 Y22.2320
G01 X33.0038 Y22.2320
G01 X33.1215 Y22.2378
G01 X33.1291 Y22.2385
G01 X33.2456 Y22.2558
G01 X33.2531 Y22.2573
G01 X33.3673 Y22.2859
G01 X33.3747 Y22.2881
G01 X33.4855 Y22.3278
G01 X33.4926 Y22.3307
G01 X33.5991 Y22.3811
G01 X33.6058 Y22.3847
G01 X33.7068 Y22.4452
G01 X33.7127 Y22.4491
G01 X33.8078 Y22.5197
G01 X33.8137 Y22.5245
G01 X33.9010 Y22.6036
G01 X33.9064 Y22.6090
G01 X33.9855 Y22.6963
G01 X33.9903 Y22.7022
G01 X34.0605 Y22.7968
G01 X34.0648 Y22.8032
G01 X34.1253 Y22.9042
G01 X34.1289 Y22.9109
G01 X34.1793 Y23.0174
G01 X34.1822 Y23.0245
G01 X34.2219 Y23.1353
G01 X34.2241 Y23.1427
G01 X34.2527 Y23.2569
G01 X34.2542 Y23.2644
G01 X34.2715 Y23.3809
G01 X34.2722 Y23.3885
G01 X34.2780 Y23.5062
G01 X34.2780 Y23.5138
G01 X34.2722 Y23.6315
G01 X34.2715 Y23.6391
G01 X34.2542 Y23.7556
G01 X34.2527 Y23.7631
G01 X34.2241 Y23.8773
G01 X34.2219 Y23.8847
G01 X34.1822 Y23.9955
G01 X34.1793 Y24.0026
G01 X34.1289 Y24.1091
G01 X34.1253 Y24.1158
G01 X34.0648 Y24.2168
G01 X34.0609 Y24.2227
G01 X33.9903 Y24.3178
G01 X33.9855 Y24.3237
G01 X33.9064 Y24.4110
G01 X33.9010 Y24.4164
G01 X33.8137 Y24.4955
G01 X33.8078 Y24.5003
G01 X33.7132 Y24.5705
G01 X33.7068 Y24.5748
G01 X33.6058 Y24.6353
G01 X33.5991 Y24.6389
G01 X33.4926 Y24.6893
G01 X33.4855 Y24.6922
G01 X33.3747 Y24.7319
G01 X33.3673 Y24.7341
G01 X33.2531 Y24.7627
G01 X33.2456 Y24.7642
G01 X33.1782 Y24.7742
G01 X33.1782 Y29.8218
G01 X40.0000 Y29.8218
G01 X40.0136 Y29.8224
G01 X40.0213 Y29.8232
G01 X40.0385 Y29.8261
G01 X40.0480 Y29.8285
G01 X40.0646 Y29.8340
G01 X40.0806 Y29.8412
G01 X40.0873 Y29.8448
G01 X40.1016 Y29.8537
G01 X40.1100 Y29.8599
G01 X40.1159 Y29.8648
G01 X40.1260 Y29.8740
G01 X42.1660 Y31.9140
G01 X42.1752 Y31.9241
G01 X42.1859 Y31.9379
G01 X42.1902 Y31.9443
G01 X42.1988 Y31.9594
G01 X42.2030 Y31.9683
G01 X42.2093 Y31.9846
G01 X42.2115 Y31.9920
G01 X42.2152 Y32.0081
G01 X42.2176 Y32.0264
G01 X42.2182 Y32.0400
G01 X42.2182 Y37.0219
G01 X42.9400 Y37.0219
G01 X42.9469 Y37.0222
G01 X42.9537 Y37.0231
G01 X42.9605 Y37.0246
G01 X42.9670 Y37.0267
G01 X42.9734 Y37.0294
G01 X42.9802 Y37.0330
G01 X42.9865 Y37.0373
G01 X42.9924 Y37.0421
G01 X42.9979 Y37.0475
G01 X43.0027 Y37.0535
G01 X43.0070 Y37.0598
G01 X43.0106 Y37.0666
G01 X43.0133 Y37.0730
G01 X43.0154 Y37.0795
G01 X43.0169 Y37.0863
G01 X43.0178 Y37.0931
G01 X43.0181 Y37.1000
G01 X43.0181 Y38.9000
G01 X43.0178 Y38.9069
G01 X43.0169 Y38.9137
G01 X43.0154 Y38.9205
G01 X43.0133 Y38.9270
G01 X43.0106 Y38.9334
G01 X43.0070 Y38.9402
G01 X43.0027 Y38.9465
G01 X42.9979 Y38.9525
G01 X42.9924 Y38.9579
G01 X42.9865 Y38.9627
G01 X42.9802 Y38.9670
G01 X42.9734 Y38.9706
G01 X42.9670 Y38.9733
G01 X42.9605 Y38.9754
G01 X42.9537 Y38.9769
G01 X42.9469 Y38.9778
G01 X42.9400 Y38.9781
G01 X41.1400 Y38.9781
G01 X41.1331 Y38.9778
G01 X41.1263 Y38.9769
G01 X41.1195 Y38.9754
G01 X41.1130 Y38.9733
G01 X41.1066 Y38.9706
G01 X41.0998 Y38.9670
G01 X41.0935 Y38.9627
G01 X41.0876 Y38.9579
G01 X41.0821 Y38.9524
G01 X41.0773 Y38.9465
G01 X41.0730 Y38.9402
G01 X41.0694 Y38.9334
G01 X41.0667 Y38.9270
G01 X41.0646 Y38.9205
G01 X41.0631 Y38.9137
G01 X41.0622 Y38.9069
G01 X41.0619 Y38.9000
G01 X41.0619 Y37.1000
G01 X41.0622 Y37.0931
G01 X41.0631 Y37.0863
G01 X41.0646 Y37.0795
G01 X41.0667 Y37.0730
G01 X41.0694 Y37.0666
G01 X41.0730 Y37.0598
G01 X41.0773 Y37.0535
G01 X41.0821 Y37.0476
G01 X41.0876 Y37.0421
G01 X41.0935 Y37.0373
G01 X41.0998 Y37.0330
G01 X41.1066 Y37.0294
G01 X41.1130 Y37.0267
G01 X41.1195 Y37.0246
G01 X41.1263 Y37.0231
G01 X41.1331 Y37.0222
G01 X41.1400 Y37.0219
G01 X41.8618 Y37.0219
G01 X41.8618 Y32.1138
G01 X39.9262 Y30.1782
G01 X33.0000 Y30.1782
G01 X32.9864 Y30.1776
G01 X32.9690 Y30.1754
G01 X32.9520 Y30.1715
G01 X32.9354 Y30.1660
G01 X32.9194 Y30.1588
G01 X32.9043 Y30.1502
G01 X32.8979 Y30.1459
G01 X32.8841 Y30.1352
G01 X32.8714 Y30.1232
G01 X32.8599 Y30.1100
G01 X32.8541 Y30.1021
G01 X32.8448 Y30.0873
G01 X32.8370 Y30.0717
G01 X32.8307 Y30.0554
G01 X32.8261 Y30.0385
G01 X32.8232 Y30.0213
G01 X32.8224 Y30.0136
G01 X32.8218 Y30.0000
G01 X32.8218 Y24.7742
G01 X32.7544 Y24.7642
G01 X32.7469 Y24.7627
G01 X32.6327 Y24.7341
G01 X32.6253 Y24.7319
G01 X32.5145 Y24.6922
G01 X32.5074 Y24.6893
G01 X32.4009 Y24.6389
G01 X32.3942 Y24.6353
G01 X32.2932 Y24.5748
G01 X32.2868 Y24.5705
G01 X32.1922 Y24.5003
G01 X32.1863 Y24.4955
G01 X32.0990 Y24.4164
G01 X32.0936 Y24.4110
G01 X32.0145 Y24.3237
G01 X32.0097 Y24.3178
G01 X31.9395 Y24.2232
G01 X31.9352 Y24.2168
G01 X31.8747 Y24.1158
G01 X31.8711 Y24.1091
G01 X31.8207 Y24.0026
G01 X31.8178 Y23.9955
G01 X31.7781 Y23.8847
G01 X31.7759 Y23.8773
G01 X31.7473 Y23.7631
G01 X31.7458 Y23.7556
G01 X31.7285 Y23.6391
G01 X31.7279 Y23.6314
G00 Z2.0000
G00 X27.7242 Y38.0972
G01 F60.00
G01 Z-2.4000
G01 F120.00
G01 X27.7195 Y38.0038
G01 X27.7195 Y37.9962
G01 X27.7241 Y37.9028
G01 X27.7248 Y37.8952
G01 X27.7387 Y37.8018
G01 X27.7400 Y37.7952
G01 X27.7628 Y37.7045
G01 X27.7650 Y37.6972
G01 X27.7965 Y37.6092
G01 X27.7994 Y37.6021
G01 X27.8394 Y37.5176
G01 X27.8430 Y37.5108
G01 X27.8910 Y37.4307
G01 X27.8949 Y37.4248
G01 X27.9510 Y37.3492
G01 X27.9558 Y37.3433
G01 X28.0186 Y37.2740
G01 X28.0240 Y37.2686
G01 X28.0933 Y37.2058
G01 X28.0992 Y37.2010
G01 X28.1743 Y37.1453
G01 X28.1807 Y37.1410
G01 X28.2608 Y37.0930
G01 X28.2676 Y37.0894
G01 X28.3521 Y37.0494
G01 X28.3592 Y37.0465
G01 X28.4472 Y37.0150
G01 X28.4545 Y37.0128
G01 X28.5452 Y36.9900
G01 X28.5518 Y36.9887
G01 X28.6452 Y36.9748
G01 X28.6528 Y36.9741
G01 X28.7462 Y36.9695
G01 X28.7538 Y36.9695
G01 X28.8472 Y36.9741
G01 X28.8548 Y36.9748
G01 X28.9473 Y36.9885
G01 X28.9548 Y36.9900
G01 X29.0455 Y37.0128
G01 X29.0528 Y37.0150
G01 X29.1408 Y37.0465
G01 X29.1479 Y37.0494
G01 X29.2324 Y37.0894
G01 X29.2392 Y37.0930
G01 X29.3193 Y37.1410
G01 X29.3257 Y37.1453
G01 X29.4008 Y37.2010
G01 X29.4067 Y37.2058
G01 X29.4760 Y37.2686
G01 X29.4814 Y37.2740
G01 X29.5442 Y37.3433
G01 X29.5490 Y37.3492
G01 X29.6047 Y37.4243
G01 X29.6090 Y37.4307
G01 X29.6570 Y37.5108
G01 X29.6606 Y37.5176
G01 X29.7006 Y37.6021
G01 X29.7035 Y37.6092
G01 X29.7350 Y37.6972
G01 X29.7372 Y37.7045
G01 X29.7600 Y37.7952
G01 X29.7613 Y37.8018
G01 X29.7643 Y37.8218
G01 X38.5387 Y37.8218
G01 X38.5415 Y37.8054
G01 X38.5630 Y37.7198
G01 X38.5652 Y37.7124
G01 X38.5950 Y37.6293
G01 X38.5979 Y37.6222
G01 X38.6357 Y37.5424
G01 X38.6393 Y37.5356
G01 X38.6847 Y37.4598
G01 X38.6886 Y37.4540
G01 X38.7416 Y37.3825
G01 X38.7464 Y37.3766
G01 X38.8057 Y37.3112
G01 X38.8112 Y37.3057
G01 X38.8766 Y37.2464
G01 X38.8825 Y37.2416
G01 X38.9535 Y37.1889
G01 X38.9598 Y37.1847
G01 X39.0356 Y37.1393
G01 X39.0424 Y37.1357
G01 X39.1222 Y37.0979
G01 X39.1293 Y37.0950
G01 X39.2124 Y37.0652
G01 X39.2198 Y37.0630
G01 X39.3054 Y37.0415
G01 X39.3120 Y37.0402
G01 X39.4003 Y37.0271
G01 X39.4080 Y37.0263
G01 X39.4962 Y37.0220
G01 X39.5038 Y37.0220
G01 X39.5920 Y37.0263
G01 X39.5997 Y37.0271
G01 X39.6870 Y37.0400
G01 X39.6946 Y37.0415
G01 X39.7802 Y37.0630
G01 X39.7876 Y37.0652
G01 X39.8707 Y37.0950
G01 X39.8778 Y37.0979
G01 X39.9576 Y37.1357
G01 X39.9644 Y37.1393
G01 X40.0402 Y37.1847
G01 X40.0460 Y37.1886
G01 X40.1175 Y37.2416
G01 X40.1234 Y37.2464
G01 X40.1888 Y37.3057
G01 X40.1943 Y37.3112
G01 X40.2536 Y37.3766
G01 X40.2584 Y37.3825
G01 X40.3111 Y37.4535
G01 X40.3153 Y37.4598
G01 X40.3607 Y37.5356
G01 X40.3643 Y37.5424
G01 X40.4021 Y37.6222
G01 X40.4050 Y37.6293
G01 X40.4348 Y37.7124
G01 X40.4370 Y37.7198
G01 X40.4585 Y37.8054
G01 X40.4598 Y37.8120
G01 X40.4729 Y37.9003
G01 X40.4737 Y37.9080
G01 X40.4780 Y37.9962
G01 X40.4780 Y38.0038
G01 X40.4737 Y38.0920
G01 X40.4729 Y38.0997
G01 X40.4600 Y38.1870
G01 X40.4585 Y38.1946
G01 X40.4370 Y38.2802
G01 X40.4348 Y38.2876
G01 X40.4050 Y38.3707
G01 X40.4021 Y38.3778
G01 X40.3643 Y38.4576
G01 X40.3607 Y38.4644
G01 X40.3153 Y38.5402
G01 X40.3114 Y38.5460
G01 X40.2584 Y38.6175
G01 X40.2536 Y38.6234
G01 X40.1943 Y38.6888
G01 X40.1888 Y38.6943
G01 X40.1234 Y38.7536
G01 X40.1175 Y38.7584
G01 X40.0465 Y38.8111
G01 X40.0402 Y38.8153
G01 X39.9644 Y38.8607
G01 X39.9576 Y38.8643
G01 X39.8778 Y38.9021
G01 X39.8707 Y38.9050
G01 X39.7876 Y38.9348
G01 X39.7802 Y38.9370
G01 X39.6946 Y38.9585
G01 X39.6880 Y38.9598
G01 X39.5997 Y38.9729
G01 X39.5920 Y38.9737
G01 X39.5038 Y38.9780
G01 X39.4962 Y38.9780
G01 X39.4080 Y38.9737
G01 X39.4003 Y38.9729
G01 X39.3130 Y38.9600
G01 X39.3054 Y38.9585
G01 X39.2198 Y38.9370
G01 X39.2124 Y38.9348
G01 X39.1293 Y38.9050
G01 X39.1222 Y38.9021
G01 X39.0424 Y38.8643
G01 X39.0356 Y38.8607
G01 X38.9598 Y38.8153
G01 X38.9540 Y38.8114
G01 X38.8825 Y38.7584
G01 X38.8766 Y38.7536
G01 X38.8112 Y38.6943
G01 X38.8057 Y38.6888
G01 X38.7464 Y38.6234
G01 X38.7416 Y38.6175
G01 X38.6889 Y38.5465
G01 X38.6847 Y38.5402
G01 X38.6393 Y38.4644
G01 X38.6357 Y38.4576
G01 X38.5979 Y38.3778
G01 X38.5950 Y38.3707
G01 X38.5652 Y38.2876
G01 X38.5630 Y38.2802
G01 X38.5415 Y38.1946
G01 X38.5387 Y38.1782
G01 X29.7643 Y38.1782
G01 X29.7615 Y38.1973
G01 X29.7600 Y38.2048
G01 X29.7372 Y38.2955
G01 X29.7350 Y38.3028
G01 X29.7035 Y38.3908
G01 X29.7006 Y38.3979
G01 X29.6606 Y38.4824
G01 X29.6570 Y38.4892
G01 X29.6090 Y38.5693
G01 X29.6051 Y38.5752
G01 X29.5490 Y38.6508
G01 X29.5442 Y38.6567
G01 X29.4814 Y38.7260
G01 X29.4760 Y38.7314
G01 X29.4067 Y38.7942
G01 X29.4008 Y38.7990
G01 X29.3257 Y38.8547
G01 X29.3193 Y38.8590
G01 X29.2392 Y38.9070
G01 X29.2324 Y38.9106
G01 X29.1479 Y38.9506
G01 X29.1408 Y38.9535
G01 X29.0528 Y38.9850
G01 X29.0455 Y38.9872
G01 X28.9548 Y39.0100
G01 X28.9482 Y39.0113
G01 X28.8548 Y39.0252
G01 X28.8472 Y39.0259
G01 X28.7538 Y39.0305
G01 X28.7462 Y39.0305
G01 X28.6528 Y39.0259
G01 X28.6452 Y39.0252
G01 X28.5527 Y39.0115
G01 X28.5452 Y39.0100
G01 X28.4545 Y38.9872
G01 X28.4472 Y38.9850
G01 X28.3592 Y38.9535
G01 X28.3521 Y38.9506
G01 X28.2676 Y38.9106
G01 X28.2608 Y38.9070
G01 X28.1807 Y38.8590
G01 X28.1748 Y38.8551
G01 X28.0992 Y38.7990
G01 X28.0933 Y38.7942
G01 X28.0240 Y38.7314
G01 X28.0186 Y38.7260
G01 X27.9558 Y38.6567
G01 X27.9510 Y38.6508
G01 X27.8953 Y38.5757
G01 X27.8910 Y38.5693
G01 X27.8430 Y38.4892
G01 X27.8394 Y38.4824
G01 X27.7994 Y38.3979
G01 X27.7965 Y38.3908
G01 X27.7650 Y38.3028
G01 X27.7628 Y38.2955
G01 X27.7400 Y38.2048
G01 X27.7385 Y38.1973
G01 X27.7248 Y38.1048
G01 X27.7242 Y38.0972
G00 Z2.0000
G00 X27.5918 Y38.1037
G01 F60.00
G01 Z-2.4000
G01 F120.00
G01 X27.5915 Y38.1037
G01 X27.5869 Y38.0103
G01 X27.5869 Y37.9897
G01 X27.5915 Y37.8963
G01 X27.5935 Y37.8757
G01 X27.6076 Y37.7807
G01 X27.6113 Y37.7629
G01 X27.6340 Y37.6723
G01 X27.6400 Y37.6525
G01 X27.6715 Y37.5645
G01 X27.6794 Y37.5453
G01 X27.7193 Y37.4608
G01 X27.7291 Y37.4426
G01 X27.7772 Y37.3624
G01 X27.7876 Y37.3466
G01 X27.8443 Y37.2701
G01 X27.8578 Y37.2544
G01 X27.8575 Y37.2541
G01 X27.9202 Y37.1849
G01 X27.9349 Y37.1702
G01 X28.0041 Y37.1075
G01 X28.0201 Y37.0943
G01 X28.0952 Y37.0387
G01 X28.1124 Y37.0272
G01 X28.1926 Y36.9791
G01 X28.2108 Y36.9693
G01 X28.2953 Y36.9294
G01 X28.3145 Y36.9215
G01 X28.4025 Y36.8900
G01 X28.4223 Y36.8840
G01 X28.5129 Y36.8613
G01 X28.5307 Y36.8576
G01 X28.6257 Y36.8435
G01 X28.6463 Y36.8418
G01 X28.6463 Y36.8415
G01 X28.7397 Y36.8369
G01 X28.7603 Y36.8369
G01 X28.8537 Y36.8415
G01 X28.8743 Y36.8435
G01 X28.9668 Y36.8572
G01 X28.9871 Y36.8613
G01 X29.0777 Y36.8840
G01 X29.0975 Y36.8900
G01 X29.1855 Y36.9215
G01 X29.2047 Y36.9294
G01 X29.2892 Y36.9693
G01 X29.3074 Y36.9791
G01 X29.3876 Y37.0272
G01 X29.4034 Y37.0376
G01 X29.4799 Y37.0943
G01 X29.4956 Y37.1078
G01 X29.4959 Y37.1075
G01 X29.5651 Y37.1702
G01 X29.5798 Y37.1849
G01 X29.6425 Y37.2541
G01 X29.6557 Y37.2701
G01 X29.7113 Y37.3452
G01 X29.7228 Y37.3624
G01 X29.7709 Y37.4426
G01 X29.7807 Y37.4608
G01 X29.8206 Y37.5453
G01 X29.8285 Y37.5645
G01 X29.8600 Y37.6525
G01 X29.8660 Y37.6723
G01 X29.8702 Y37.6891
G01 X38.4338 Y37.6891
G01 X38.4402 Y37.6677
G01 X38.4700 Y37.5845
G01 X38.4779 Y37.5654
G01 X38.5156 Y37.4856
G01 X38.5254 Y37.4673
G01 X38.5708 Y37.3916
G01 X38.5813 Y37.3758
G01 X38.6349 Y37.3034
G01 X38.6483 Y37.2877
G01 X38.6480 Y37.2874
G01 X38.7074 Y37.2220
G01 X38.7220 Y37.2074
G01 X38.7874 Y37.1480
G01 X38.8034 Y37.1349
G01 X38.8744 Y37.0823
G01 X38.8916 Y37.0708
G01 X38.9673 Y37.0254
G01 X38.9856 Y37.0156
G01 X39.0654 Y36.9779
G01 X39.0845 Y36.9700
G01 X39.1677 Y36.9402
G01 X39.1875 Y36.9342
G01 X39.2732 Y36.9127
G01 X39.2909 Y36.9091
G01 X39.3808 Y36.8957
G01 X39.4015 Y36.8941
G01 X39.4014 Y36.8937
G01 X39.4897 Y36.8894
G01 X39.5103 Y36.8894
G01 X39.5986 Y36.8937
G01 X39.6192 Y36.8957
G01 X39.7065 Y36.9087
G01 X39.7268 Y36.9127
G01 X39.8125 Y36.9342
G01 X39.8323 Y36.9402
G01 X39.9155 Y36.9700
G01 X39.9346 Y36.9779
G01 X40.0144 Y37.0156
G01 X40.0327 Y37.0254
G01 X40.1084 Y37.0708
G01 X40.1242 Y37.0813
G01 X40.1966 Y37.1349
G01 X40.2123 Y37.1483
G01 X40.2126 Y37.1480
G01 X40.2780 Y37.2074
G01 X40.2926 Y37.2220
G01 X40.3520 Y37.2874
G01 X40.3651 Y37.3034
G01 X40.4177 Y37.3744
G01 X40.4292 Y37.3916
G01 X40.4746 Y37.4673
G01 X40.4844 Y37.4856
G01 X40.5221 Y37.5654
G01 X40.5300 Y37.5845
G01 X40.5598 Y37.6677
G01 X40.5658 Y37.6875
G01 X40.5873 Y37.7732
G01 X40.5909 Y37.7909
G01 X40.6043 Y37.8808
G01 X40.6059 Y37.9015
G01 X40.6063 Y37.9014
G01 X40.6106 Y37.9897
G01 X40.6106 Y38.0103
G01 X40.6063 Y38.0986
G01 X40.6043 Y38.1192
G01 X40.5913 Y38.2065
G01 X40.5873 Y38.2268
G01 X40.5658 Y38.3125
G01 X40.5598 Y38.3323
G01 X40.5300 Y38.4155
G01 X40.5221 Y38.4346
G01 X40.4844 Y38.5144
G01 X40.4746 Y38.5327
G01 X40.4292 Y38.6084
G01 X40.4187 Y38.6242
G01 X40.3651 Y38.6966
G01 X40.3517 Y38.7123
G01 X40.3520 Y38.7126
G01 X40.2926 Y38.7780
G01 X40.2780 Y38.7926
G01 X40.2126 Y38.8520
G01 X40.1966 Y38.8651
G01 X40.1256 Y38.9177
G01 X40.1084 Y38.9292
G01 X40.0327 Y38.9746
G01 X40.0144 Y38.9844
G01 X39.9346 Y39.0221
G01 X39.9155 Y39.0300
G01 X39.8323 Y39.0598
G01 X39.8125 Y39.0658
G01 X39.7268 Y39.0873
G01 X39.7091 Y39.0909
G01 X39.6192 Y39.1043
G01 X39.5985 Y39.1059
G01 X39.5986 Y39.1063
G01 X39.5103 Y39.1106
G01 X39.4897 Y39.1106
G01 X39.4014 Y39.1063
G01 X39.3808 Y39.1043
G01 X39.2935 Y39.0913
G01 X39.2732 Y39.0873
G01 X39.1875 Y39.0658
G01 X39.1677 Y39.0598
G01 X39.0845 Y39.0300
G01 X39.0654 Y39.0221
G01 X38.9856 Y38.9844
G01 X38.9673 Y38.9746
G01 X38.8916 Y38.9292
G01 X38.8758 Y38.9187
G01 X38.8034 Y38.8651
G01 X38.7877 Y38.8517
G01 X38.7874 Y38.8520
G01 X38.7220 Y38.7926
G01 X38.7074 Y38.7780
G01 X38.6480 Y38.7126
G01 X38.6349 Y38.6966
G01 X38.5823 Y38.6256
G01 X38.5708 Y38.6084
G01 X38.5254 Y38.5327
G01 X38.5156 Y38.5144
G01 X38.4779 Y38.4346
G01 X38.4700 Y38.4155
G01 X38.4402 Y38.3323
G01 X38.4338 Y38.3109
G01 X29.8702 Y38.3109
G01 X29.8660 Y38.3277
G01 X29.8600 Y38.3475
G01 X29.8285 Y38.4355
G01 X29.8206 Y38.4547
G01 X29.7807 Y38.5392
G01 X29.7709 Y38.5574
G01 X29.7228 Y38.6376
G01 X29.7124 Y38.6534
G01 X29.6557 Y38.7299
G01 X29.6422 Y38.7456
G01 X29.6425 Y38.7459
G01 X29.5798 Y38.8151
G01 X29.5651 Y38.8298
G01 X29.4959 Y38.8925
G01 X29.4799 Y38.9057
G01 X29.4048 Y38.9613
G01 X29.3876 Y38.9728
G01 X29.3074 Y39.0209
G01 X29.2892 Y39.0307
G01 X29.2047 Y39.0706
G01 X29.1855 Y39.0785
G01 X29.0975 Y39.1100
G01 X29.0777 Y39.1160
G01 X28.9871 Y39.1387
G01 X28.9693 Y39.1424
G01 X28.8743 Y39.1565
G01 X28.8537 Y39.1582
G01 X28.8537 Y39.1585
G01 X28.7603 Y39.1631
G01 X28.7397 Y39.1631
G01 X28.6463 Y39.1585
G01 X28.6257 Y39.1565
G01 X28.5332 Y39.1428
G01 X28.5129 Y39.1387
G01 X28.4223 Y39.1160
G01 X28.4025 Y39.1100
G01 X28.3145 Y39.0785
G01 X28.2953 Y39.0706
G01 X28.2108 Y39.0307
G01 X28.1926 Y39.0209
G01 X28.1124 Y38.9728
G01 X28.0966 Y38.9624
G01 X28.0201 Y38.9057
G01 X28.0044 Y38.8922
G01 X28.0041 Y38.8925
G01 X27.9349 Y38.8298
G01 X27.9202 Y38.8151
G01 X27.8575 Y38.7459
G01 X27.8443 Y38.7299
G01 X27.7887 Y38.6548
G01 X27.7772 Y38.6376
G01 X27.7291 Y38.5574
G01 X27.7193 Y38.5392
G01 X27.6794 Y38.4547
G01 X27.6715 Y38.4355
G01 X27.6400 Y38.3475
G01 X27.6340 Y38.3277
G01 X27.6113 Y38.2371
G01 X27.6076 Y38.2193
G01 X27.5935 Y38.1243
G01 X27.5918 Y38.1037
G00 Z2.0000
G00 X27.5079 Y38.0978
G01 F60.00
G01 Z-2.4000
G01 F120.00
G01 X27.5079 Y37.9022
G01 X27.5385 Y37.7091
G01 X27.5989 Y37.5232
G01 X27.6876 Y37.3490
G01 X27.8026 Y37.1908
G01 X27.9408 Y37.0526
G01 X28.0990 Y36.9376
G01 X28.2732 Y36.8489
G01 X28.4591 Y36.7885
G01 X28.6522 Y36.7579
G01 X28.8478 Y36.7579
G01 X29.0409 Y36.7885
G01 X29.2268 Y36.8489
G01 X29.4010 Y36.9376
G01 X29.5592 Y37.0526
G01 X29.6974 Y37.1908
G01 X29.8124 Y37.3490
G01 X29.8524 Y37.4275
G01 X29.8615 Y37.4436
G01 X29.8719 Y37.4588
G01 X29.8870 Y37.4766
G01 X29.9349 Y37.5274
G01 X29.9520 Y37.5436
G01 X29.9708 Y37.5577
G01 X29.9910 Y37.5697
G01 X30.0117 Y37.5791
G01 X30.0332 Y37.5861
G01 X30.0957 Y37.6031
G01 X30.1138 Y37.6071
G01 X30.1322 Y37.6096
G01 X30.1508 Y37.6104
G01 X38.1582 Y37.6104
G01 X38.1782 Y37.6094
G01 X38.1981 Y37.6066
G01 X38.2176 Y37.6018
G01 X38.2846 Y37.5821
G01 X38.3068 Y37.5743
G01 X38.3280 Y37.5639
G01 X38.3479 Y37.5513
G01 X38.3655 Y37.5372
G01 X38.3816 Y37.5213
G01 X38.4250 Y37.4733
G01 X38.4375 Y37.4581
G01 X38.4477 Y37.4432
G01 X38.4565 Y37.4275
G01 X38.4825 Y37.3765
G01 X38.5926 Y37.2250
G01 X38.7250 Y37.0926
G01 X38.8765 Y36.9825
G01 X39.0433 Y36.8975
G01 X39.2214 Y36.8397
G01 X39.4064 Y36.8104
G01 X39.5936 Y36.8104
G01 X39.7786 Y36.8397
G01 X39.9567 Y36.8975
G01 X40.1235 Y36.9825
G01 X40.2750 Y37.0926
G01 X40.3134 Y37.1310
G01 X40.3283 Y37.1445
G01 X40.3443 Y37.1566
G01 X40.3615 Y37.1670
G01 X40.4228 Y37.2005
G01 X40.4396 Y37.2087
G01 X40.4570 Y37.2154
G01 X40.4788 Y37.2214
G01 X40.5012 Y37.2251
G01 X40.5239 Y37.2263
G01 X40.5389 Y37.2257
G01 X40.6086 Y37.2208
G01 X40.6273 Y37.2186
G01 X40.6458 Y37.2147
G01 X40.6639 Y37.2092
G01 X40.6835 Y37.2011
G01 X40.7023 Y37.1911
G01 X40.7199 Y37.1792
G01 X40.7759 Y37.1374
G01 X40.7949 Y37.1213
G01 X40.8057 Y37.1102
G01 X40.8213 Y37.0907
G01 X40.8346 Y37.0696
G01 X40.8515 Y37.0386
G01 X40.8640 Y37.0113
G01 X40.8832 Y36.9598
G01 X40.9331 Y36.8931
G01 X40.9998 Y36.8432
G01 X41.0814 Y36.8127
G01 X41.1034 Y36.8104
G01 X41.3155 Y36.8104
G01 X41.3355 Y36.8094
G01 X41.3554 Y36.8066
G01 X41.3749 Y36.8018
G01 X41.4419 Y36.7821
G01 X41.4608 Y36.7756
G01 X41.4790 Y36.7673
G01 X41.4963 Y36.7574
G01 X41.5127 Y36.7457
G01 X41.5280 Y36.7325
G01 X41.5419 Y36.7179
G01 X41.5877 Y36.6651
G01 X41.5986 Y36.6513
G01 X41.6084 Y36.6366
G01 X41.6170 Y36.6212
G01 X41.6276 Y36.5957
G01 X41.6343 Y36.5718
G01 X41.6456 Y36.5203
G01 X41.6492 Y36.4980
G01 X41.6504 Y36.4755
G01 X41.6504 Y32.3401
G01 X41.6494 Y32.3201
G01 X41.6466 Y32.3002
G01 X41.6418 Y32.2807
G01 X41.6221 Y32.2136
G01 X41.6157 Y32.1949
G01 X41.6075 Y32.1769
G01 X41.5976 Y32.1597
G01 X41.5840 Y32.1407
G01 X41.5674 Y32.1201
G01 X41.5523 Y32.1033
G01 X39.9367 Y30.4877
G01 X39.9218 Y30.4742
G01 X39.9058 Y30.4622
G01 X39.8886 Y30.4517
G01 X39.8273 Y30.4183
G01 X39.8116 Y30.4105
G01 X39.7953 Y30.4041
G01 X39.7723 Y30.3976
G01 X39.7488 Y30.3937
G01 X39.7224 Y30.3908
G01 X39.6999 Y30.3896
G01 X32.9487 Y30.3896
G01 X32.8496 Y30.3631
G01 X32.7608 Y30.3118
G01 X32.6882 Y30.2392
G01 X32.6369 Y30.1504
G01 X32.6104 Y30.0513
G01 X32.6104 Y25.1847
G01 X32.6094 Y25.1647
G01 X32.6066 Y25.1448
G01 X32.6018 Y25.1253
G01 X32.5821 Y25.0583
G01 X32.5756 Y25.0394
G01 X32.5673 Y25.0212
G01 X32.5574 Y25.0039
G01 X32.5457 Y24.9875
G01 X32.5325 Y24.9722
G01 X32.5179 Y24.9583
G01 X32.4651 Y24.9126
G01 X32.4513 Y24.9016
G01 X32.4367 Y24.8918
G01 X32.4212 Y24.8833
G01 X32.4112 Y24.8786
G01 X32.3397 Y24.8489
G01 X32.1706 Y24.7512
G01 X32.0157 Y24.6324
G01 X31.8776 Y24.4943
G01 X31.7588 Y24.3394
G01 X31.6611 Y24.1703
G01 X31.5864 Y23.9899
G01 X31.5359 Y23.8012
G01 X31.5104 Y23.6076
G01 X31.5104 Y23.4124
G01 X31.5359 Y23.2188
G01 X31.5864 Y23.0301
G01 X31.6611 Y22.8497
G01 X31.7588 Y22.6806
G01 X31.8776 Y22.5257
G01 X32.0157 Y22.3876
G01 X32.1706 Y22.2688
G01 X32.3397 Y22.1711
G01 X32.5201 Y22.0964
G01 X32.7088 Y22.0459
G01 X32.9024 Y22.0204
G01 X33.0976 Y22.0204
G01 X33.2912 Y22.0459
G01 X33.4799 Y22.0964
G01 X33.6603 Y22.1711
G01 X33.8294 Y22.2688
G01 X33.9843 Y22.3876
G01 X34.1224 Y22.5257
G01 X34.2412 Y22.6806
G01 X34.3389 Y22.8497
G01 X34.4136 Y23.0301
G01 X34.4641 Y23.2188
G01 X34.4896 Y23.4124
G01 X34.4896 Y23.6076
G01 X34.4641 Y23.8012
G01 X34.4136 Y23.9899
G01 X34.3389 Y24.1703
G01 X34.2412 Y24.3394
G01 X34.1224 Y24.4943
G01 X33.9843 Y24.6324
G01 X33.8294 Y24.7512
G01 X33.6603 Y24.8489
G01 X33.5963 Y24.8754
G01 X33.5965 Y24.8756
G01 X33.5843 Y24.8808
G01 X33.5638 Y24.8923
G01 X33.5447 Y24.9060
G01 X33.4903 Y24.9498
G01 X33.4735 Y24.9649
G01 X33.4604 Y24.9794
G01 X33.4486 Y24.9950
G01 X33.4383 Y25.0116
G01 X33.4296 Y25.0292
G01 X33.4226 Y25.0474
G01 X33.4005 Y25.1137
G01 X33.3942 Y25.1370
G01 X33.3910 Y25.1567
G01 X33.3897 Y25.1765
G01 X33.3896 Y25.1847
G01 X33.3896 Y29.2755
G01 X33.3906 Y29.2955
G01 X33.3934 Y29.3154
G01 X33.3982 Y29.3349
G01 X33.4179 Y29.4019
G01 X33.4244 Y29.4208
G01 X33.4327 Y29.4390
G01 X33.4426 Y29.4563
G01 X33.4543 Y29.4727
G01 X33.4675 Y29.4880
G01 X33.4821 Y29.5019
G01 X33.5349 Y29.5477
G01 X33.5487 Y29.5586
G01 X33.5634 Y29.5684
G01 X33.5813 Y29.5782
G01 X33.6043 Y29.5876
G01 X33.6282 Y29.5943
G01 X33.6797 Y29.6056
G01 X33.7020 Y29.6092
G01 X33.7245 Y29.6104
G01 X40.0513 Y29.6104
G01 X40.1504 Y29.6369
G01 X40.2392 Y29.6882
G01 X42.3518 Y31.8008
G01 X42.4031 Y31.8896
G01 X42.4296 Y31.9887
G01 X42.4296 Y36.4755
G01 X42.4306 Y36.4955
G01 X42.4334 Y36.5154
G01 X42.4382 Y36.5349
G01 X42.4579 Y36.6020
G01 X42.4644 Y36.6208
G01 X42.4727 Y36.6390
G01 X42.4826 Y36.6563
G01 X42.4943 Y36.6727
G01 X42.5075 Y36.6880
G01 X42.5221 Y36.7019
G01 X42.5749 Y36.7477
G01 X42.5887 Y36.7586
G01 X42.6034 Y36.7684
G01 X42.6188 Y36.7770
G01 X42.6443 Y36.7876
G01 X42.6682 Y36.7943
G01 X42.7197 Y36.8056
G01 X42.7420 Y36.8092
G01 X42.7645 Y36.8104
G01 X42.9766 Y36.8104
G01 X42.9986 Y36.8127
G01 X43.0802 Y36.8432
G01 X43.1469 Y36.8931
G01 X43.1968 Y36.9598
G01 X43.2273 Y37.0414
G01 X43.2296 Y37.0634
G01 X43.2296 Y38.9366
G01 X43.2273 Y38.9586
G01 X43.1968 Y39.0402
G01 X43.1469 Y39.1069
G01 X43.0802 Y39.1568
G01 X42.9986 Y39.1873
G01 X42.9766 Y39.1896
G01 X41.1034 Y39.1896
G01 X41.0814 Y39.1873
G01 X40.9998 Y39.1568
G01 X40.9331 Y39.1069
G01 X40.8832 Y39.0402
G01 X40.8634 Y38.9872
G01 X40.8556 Y38.9693
G01 X40.8462 Y38.9522
G01 X40.8352 Y38.9360
G01 X40.7933 Y38.8801
G01 X40.7806 Y38.8646
G01 X40.7664 Y38.8505
G01 X40.7509 Y38.8377
G01 X40.7343 Y38.8264
G01 X40.7167 Y38.8168
G01 X40.6982 Y38.8089
G01 X40.6328 Y38.7845
G01 X40.6327 Y38.7848
G01 X40.6222 Y38.7809
G01 X40.6010 Y38.7754
G01 X40.5794 Y38.7722
G01 X40.5576 Y38.7712
G01 X40.5358 Y38.7725
G01 X40.5142 Y38.7760
G01 X40.4460 Y38.7909
G01 X40.4270 Y38.7959
G01 X40.4086 Y38.8027
G01 X40.3857 Y38.8141
G01 X40.3644 Y38.8281
G01 X40.3362 Y38.8493
G01 X40.3134 Y38.8690
G01 X40.2750 Y38.9074
G01 X40.1235 Y39.0175
G01 X39.9567 Y39.1025
G01 X39.7786 Y39.1603
G01 X39.5936 Y39.1896
G01 X39.4064 Y39.1896
G01 X39.2214 Y39.1603
G01 X39.0433 Y39.1025
G01 X38.8765 Y39.0175
G01 X38.7250 Y38.9074
G01 X38.5926 Y38.7750
G01 X38.4825 Y38.6235
G01 X38.4565 Y38.5725
G01 X38.4474 Y38.5564
G01 X38.4370 Y38.5412
G01 X38.4220 Y38.5234
G01 X38.3740 Y38.4726
G01 X38.3569 Y38.4564
G01 X38.3381 Y38.4423
G01 X38.3179 Y38.4303
G01 X38.2972 Y38.4209
G01 X38.2757 Y38.4139
G01 X38.2132 Y38.3969
G01 X38.1951 Y38.3929
G01 X38.1767 Y38.3904
G01 X38.1582 Y38.3896
G01 X30.1508 Y38.3896
G01 X30.1307 Y38.3906
G01 X30.1108 Y38.3934
G01 X30.0913 Y38.3982
G01 X30.0243 Y38.4179
G01 X30.0021 Y38.4257
G01 X29.9809 Y38.4361
G01 X29.9610 Y38.4487
G01 X29.9434 Y38.4628
G01 X29.9274 Y38.4787
G01 X29.8839 Y38.5267
G01 X29.8714 Y38.5419
G01 X29.8612 Y38.5568
G01 X29.8524 Y38.5725
G01 X29.8124 Y38.6510
G01 X29.6974 Y38.8092
G01 X29.5592 Y38.9474
G01 X29.4010 Y39.0624
G01 X29.2268 Y39.1511
G01 X29.0409 Y39.2115
G01 X28.8478 Y39.2421
G01 X28.6522 Y39.2421
G01 X28.4591 Y39.2115
G01 X28.2732 Y39.1511
G01 X28.0990 Y39.0624
G01 X27.9408 Y38.9474
G01 X27.8026 Y38.8092
G01 X27.6876 Y38.6510
G01 X27.5989 Y38.4768
G01 X27.5385 Y38.2909
G01 X27.5079 Y38.0978
G00 Z2.0000
G00 X27.3751 Y38.1082
G01 F60.00
G01 Z-2.4000
G01 F120.00
G01 X27.3751 Y37.8918
G01 X27.4090 Y37.6780
G01 X27.4758 Y37.4722
G01 X27.5741 Y37.2794
G01 X27.7013 Y37.1043
G01 X27.8543 Y36.9513
G01 X28.0294 Y36.8241
G01 X28.2222 Y36.7258
G01 X28.4280 Y36.6590
G01 X28.6418 Y36.6251
G01 X28.8582 Y36.6251
G01 X29.0720 Y36.6590
G01 X29.2778 Y36.7258
G01 X29.4706 Y36.8241
G01 X29.6457 Y36.9513
G01 X29.7987 Y37.1043
G01 X29.9259 Y37.2794
G01 X29.9707 Y37.3673
G01 X29.9741 Y37.3732
G01 X29.9779 Y37.3788
G01 X29.9835 Y37.3854
G01 X30.0315 Y37.4362
G01 X30.0378 Y37.4422
G01 X30.0448 Y37.4475
G01 X30.0522 Y37.4519
G01 X30.0599 Y37.4554
G01 X30.0679 Y37.4580
G01 X30.1304 Y37.4749
G01 X30.1371 Y37.4764
G01 X30.1439 Y37.4773
G01 X30.1508 Y37.4776
G01 X38.1582 Y37.4776
G01 X38.1656 Y37.4772
G01 X38.1729 Y37.4762
G01 X38.1802 Y37.4744
G01 X38.2472 Y37.4548
G01 X38.2554 Y37.4518
G01 X38.2633 Y37.4480
G01 X38.2706 Y37.4433
G01 X38.2772 Y37.4381
G01 X38.2831 Y37.4322
G01 X38.3266 Y37.3842
G01 X38.3312 Y37.3786
G01 X38.3350 Y37.3731
G01 X38.3382 Y37.3673
G01 X38.3690 Y37.3069
G01 X38.4913 Y37.1385
G01 X38.6385 Y36.9913
G01 X38.8069 Y36.8690
G01 X38.9924 Y36.7745
G01 X39.1903 Y36.7102
G01 X39.3959 Y36.6776
G01 X39.6041 Y36.6776
G01 X39.8097 Y36.7102
G01 X40.0076 Y36.7745
G01 X40.1931 Y36.8690
G01 X40.3615 Y36.9913
G01 X40.4073 Y37.0372
G01 X40.4128 Y37.0422
G01 X40.4188 Y37.0466
G01 X40.4251 Y37.0505
G01 X40.4864 Y37.0840
G01 X40.4926 Y37.0870
G01 X40.4991 Y37.0895
G01 X40.5072 Y37.0917
G01 X40.5155 Y37.0931
G01 X40.5239 Y37.0935
G01 X40.5294 Y37.0933
G01 X40.5991 Y37.0883
G01 X40.6061 Y37.0875
G01 X40.6129 Y37.0861
G01 X40.6196 Y37.0841
G01 X40.6269 Y37.0811
G01 X40.6338 Y37.0773
G01 X40.6404 Y37.0730
G01 X40.6963 Y37.0311
G01 X40.7033 Y37.0251
G01 X40.7074 Y37.0210
G01 X40.7131 Y37.0138
G01 X40.7180 Y37.0060
G01 X40.7349 Y36.9750
G01 X40.7396 Y36.9649
G01 X40.7655 Y36.8955
G01 X40.8382 Y36.7982
G01 X40.9355 Y36.7255
G01 X41.0506 Y36.6825
G01 X41.0963 Y36.6776
G01 X41.3155 Y36.6776
G01 X41.3229 Y36.6772
G01 X41.3303 Y36.6762
G01 X41.3375 Y36.6744
G01 X41.4045 Y36.6548
G01 X41.4115 Y36.6523
G01 X41.4183 Y36.6493
G01 X41.4247 Y36.6456
G01 X41.4308 Y36.6413
G01 X41.4364 Y36.6364
G01 X41.4416 Y36.6310
G01 X41.4873 Y36.5782
G01 X41.4914 Y36.5730
G01 X41.4950 Y36.5676
G01 X41.4982 Y36.5619
G01 X41.5021 Y36.5525
G01 X41.5046 Y36.5436
G01 X41.5158 Y36.4921
G01 X41.5172 Y36.4838
G01 X41.5176 Y36.4755
G01 X41.5176 Y32.3401
G01 X41.5172 Y32.3327
G01 X41.5162 Y32.3253
G01 X41.5144 Y32.3181
G01 X41.4948 Y32.2511
G01 X41.4924 Y32.2441
G01 X41.4893 Y32.2374
G01 X41.4857 Y32.2311
G01 X41.4806 Y32.2241
G01 X41.4640 Y32.2034
G01 X41.4584 Y32.1972
G01 X39.8428 Y30.5816
G01 X39.8373 Y30.5766
G01 X39.8314 Y30.5721
G01 X39.8250 Y30.5683
G01 X39.7637 Y30.5348
G01 X39.7579 Y30.5319
G01 X39.7518 Y30.5295
G01 X39.7433 Y30.5271
G01 X39.7346 Y30.5257
G01 X39.7083 Y30.5228
G01 X39.6999 Y30.5224
G01 X32.9312 Y30.5224
G01 X32.7984 Y30.4868
G01 X32.6792 Y30.4180
G01 X32.5820 Y30.3208
G01 X32.5132 Y30.2016
G01 X32.4776 Y30.0688
G01 X32.4776 Y25.1847
G01 X32.4772 Y25.1773
G01 X32.4762 Y25.1699
G01 X32.4744 Y25.1627
G01 X32.4548 Y25.0957
G01 X32.4523 Y25.0887
G01 X32.4493 Y25.0820
G01 X32.4456 Y25.0756
G01 X32.4412 Y25.0695
G01 X32.4364 Y25.0638
G01 X32.4310 Y25.0587
G01 X32.3782 Y25.0129
G01 X32.3730 Y25.0088
G01 X32.3676 Y25.0052
G01 X32.3619 Y25.0021
G01 X32.3541 Y24.9986
G01 X32.2809 Y24.9682
G01 X32.0967 Y24.8619
G01 X31.9280 Y24.7324
G01 X31.7776 Y24.5820
G01 X31.6481 Y24.4133
G01 X31.5418 Y24.2291
G01 X31.4604 Y24.0326
G01 X31.4054 Y23.8272
G01 X31.3776 Y23.6163
G01 X31.3776 Y23.4037
G01 X31.4054 Y23.1928
G01 X31.4604 Y22.9874
G01 X31.5418 Y22.7909
G01 X31.6481 Y22.6067
G01 X31.7776 Y22.4380
G01 X31.9280 Y22.2876
G01 X32.0967 Y22.1581
G01 X32.2809 Y22.0518
G01 X32.4774 Y21.9704
G01 X32.6828 Y21.9154
G01 X32.8937 Y21.8876
G01 X33.1063 Y21.8876
G01 X33.3172 Y21.9154
G01 X33.5226 Y21.9704
G01 X33.7191 Y22.0518
G01 X33.9033 Y22.1581
G01 X34.0720 Y22.2876
G01 X34.2224 Y22.4380
G01 X34.3519 Y22.6067
G01 X34.4582 Y22.7909
G01 X34.5396 Y22.9874
G01 X34.5946 Y23.1928
G01 X34.6224 Y23.4037
G01 X34.6224 Y23.6163
G01 X34.5946 Y23.8272
G01 X34.5396 Y24.0326
G01 X34.4582 Y24.2291
G01 X34.3519 Y24.4133
G01 X34.2224 Y24.5820
G01 X34.0720 Y24.7324
G01 X33.9033 Y24.8619
G01 X33.7191 Y24.9682
G01 X33.6472 Y24.9980
G01 X33.6427 Y25.0000
G01 X33.6351 Y25.0043
G01 X33.6280 Y25.0094
G01 X33.5736 Y25.0532
G01 X33.5674 Y25.0588
G01 X33.5625 Y25.0641
G01 X33.5582 Y25.0699
G01 X33.5544 Y25.0761
G01 X33.5511 Y25.0826
G01 X33.5485 Y25.0893
G01 X33.5265 Y25.1556
G01 X33.5241 Y25.1643
G01 X33.5230 Y25.1716
G01 X33.5224 Y25.1847
G01 X33.5224 Y29.2755
G01 X33.5228 Y29.2829
G01 X33.5238 Y29.2903
G01 X33.5256 Y29.2975
G01 X33.5452 Y29.3645
G01 X33.5477 Y29.3715
G01 X33.5507 Y29.3783
G01 X33.5544 Y29.3847
G01 X33.5588 Y29.3908
G01 X33.5636 Y29.3964
G01 X33.5690 Y29.4016
G01 X33.6218 Y29.4473
G01 X33.6270 Y29.4514
G01 X33.6324 Y29.4550
G01 X33.6390 Y29.4586
G01 X33.6475 Y29.4621
G01 X33.6564 Y29.4646
G01 X33.7079 Y29.4758
G01 X33.7162 Y29.4772
G01 X33.7245 Y29.4776
G01 X40.0688 Y29.4776
G01 X40.2016 Y29.5132
G01 X40.3208 Y29.5820
G01 X42.4580 Y31.7192
G01 X42.5268 Y31.8384
G01 X42.5624 Y31.9712
G01 X42.5624 Y36.4755
G01 X42.5628 Y36.4829
G01 X42.5638 Y36.4903
G01 X42.5656 Y36.4975
G01 X42.5852 Y36.5645
G01 X42.5877 Y36.5715
G01 X42.5907 Y36.5783
G01 X42.5944 Y36.5847
G01 X42.5988 Y36.5908
G01 X42.6036 Y36.5964
G01 X42.6090 Y36.6016
G01 X42.6618 Y36.6473
G01 X42.6670 Y36.6514
G01 X42.6724 Y36.6550
G01 X42.6790 Y36.6586
G01 X42.6875 Y36.6621
G01 X42.6964 Y36.6646
G01 X42.7479 Y36.6758
G01 X42.7562 Y36.6772
G01 X42.7645 Y36.6776
G01 X42.9837 Y36.6776
G01 X43.0294 Y36.6825
G01 X43.1445 Y36.7255
G01 X43.2418 Y36.7982
G01 X43.3145 Y36.8955
G01 X43.3575 Y37.0106
G01 X43.3624 Y37.0563
G01 X43.3624 Y38.9437
G01 X43.3575 Y38.9894
G01 X43.3145 Y39.1045
G01 X43.2418 Y39.2018
G01 X43.1445 Y39.2745
G01 X43.0294 Y39.3175
G01 X42.9837 Y39.3224
G01 X41.0963 Y39.3224
G01 X41.0506 Y39.3175
G01 X40.9355 Y39.2745
G01 X40.8382 Y39.2018
G01 X40.7655 Y39.1045
G01 X40.7394 Y39.0346
G01 X40.7365 Y39.0279
G01 X40.7330 Y39.0216
G01 X40.7289 Y39.0156
G01 X40.6870 Y38.9597
G01 X40.6823 Y38.9540
G01 X40.6771 Y38.9487
G01 X40.6713 Y38.9440
G01 X40.6652 Y38.9398
G01 X40.6587 Y38.9362
G01 X40.6518 Y38.9333
G01 X40.5824 Y38.9075
G01 X40.5746 Y38.9055
G01 X40.5666 Y38.9043
G01 X40.5585 Y38.9040
G01 X40.5504 Y38.9044
G01 X40.5425 Y38.9058
G01 X40.4742 Y38.9206
G01 X40.4672 Y38.9225
G01 X40.4603 Y38.9250
G01 X40.4519 Y38.9292
G01 X40.4440 Y38.9344
G01 X40.4157 Y38.9556
G01 X40.4073 Y38.9628
G01 X40.3615 Y39.0087
G01 X40.1931 Y39.1310
G01 X40.0076 Y39.2255
G01 X39.8097 Y39.2898
G01 X39.7069 Y39.3061
G01 X39.6041 Y39.3224
G01 X39.3959 Y39.3224
G01 X39.1903 Y39.2898
G01 X38.9924 Y39.2255
G01 X38.8069 Y39.1310
G01 X38.6385 Y39.0087
G01 X38.4913 Y38.8615
G01 X38.3690 Y38.6931
G01 X38.3382 Y38.6327
G01 X38.3349 Y38.6268
G01 X38.3310 Y38.6212
G01 X38.3254 Y38.6146
G01 X38.2775 Y38.5638
G01 X38.2711 Y38.5578
G01 X38.2642 Y38.5525
G01 X38.2567 Y38.5481
G01 X38.2490 Y38.5446
G01 X38.2411 Y38.5420
G01 X38.1786 Y38.5251
G01 X38.1718 Y38.5236
G01 X38.1650 Y38.5227
G01 X38.1582 Y38.5224
G01 X30.1508 Y38.5224
G01 X30.1433 Y38.5228
G01 X30.1360 Y38.5238
G01 X30.1288 Y38.5256
G01 X30.0617 Y38.5452
G01 X30.0535 Y38.5482
G01 X30.0457 Y38.5520
G01 X30.0383 Y38.5567
G01 X30.0317 Y38.5619
G01 X30.0258 Y38.5678
G01 X29.9824 Y38.6158
G01 X29.9777 Y38.6214
G01 X29.9740 Y38.6269
G01 X29.9707 Y38.6327
G01 X29.9259 Y38.7206
G01 X29.7987 Y38.8957
G01 X29.6457 Y39.0487
G01 X29.4706 Y39.1759
G01 X29.2778 Y39.2742
G01 X29.0720 Y39.3410
G01 X28.8582 Y39.3749
G01 X28.6418 Y39.3749
G01 X28.4280 Y39.3410
G01 X28.2222 Y39.2742
G01 X28.0294 Y39.1759
G01 X27.8543 Y39.0487
G01 X27.7013 Y38.8957
G01 X27.5741 Y38.7206
G01 X27.4758 Y38.5278
G01 X27.4090 Y38.3220
G01 X27.3751 Y38.1082
G00 Z2.0000
G00 X40.5633 Y37.3571
G01 F60.00
G01 Z-2.4000
G01 F120.00
G01 X40.6181 Y37.3532
G01 X40.6486 Y37.3496
G01 X40.6787 Y37.3433
G01 X40.7081 Y37.3344
G01 X40.7402 Y37.3212
G01 X40.7707 Y37.3049
G01 X40.7964 Y37.2876
G01 X40.7964 Y38.7092
G01 X40.7747 Y38.6974
G01 X40.7446 Y38.6845
G01 X40.6792 Y38.6601
G01 X40.6790 Y38.6605
G01 X40.6619 Y38.6542
G01 X40.6274 Y38.6453
G01 X40.5922 Y38.6400
G01 X40.5657 Y38.6388
G01 X40.5885 Y38.6009
G01 X40.6044 Y38.5712
G01 X40.6421 Y38.4913
G01 X40.6550 Y38.4602
G01 X40.6848 Y38.3770
G01 X40.6844 Y38.3769
G01 X40.6946 Y38.3448
G01 X40.7160 Y38.2591
G01 X40.7226 Y38.2260
G01 X40.7356 Y38.1386
G01 X40.7389 Y38.1051
G01 X40.7432 Y38.0169
G01 X40.7432 Y37.9831
G01 X40.7389 Y37.8949
G01 X40.7383 Y37.8950
G01 X40.7356 Y37.8614
G01 X40.7220 Y37.7698
G01 X40.7160 Y37.7409
G01 X40.6946 Y37.6552
G01 X40.6848 Y37.6230
G01 X40.6550 Y37.5398
G01 X40.6421 Y37.5087
G01 X40.6044 Y37.4288
G01 X40.5885 Y37.3991
G01 X40.5633 Y37.3571
G00 Z2.0000
G00 X47.4452 Y7.9323
G01 F60.00
G01 Z-2.4000
G01 F120.00
G01 X47.4637 Y7.9276
G01 X47.4778 Y7.9233
G01 X47.5341 Y7.9031
G01 X47.5477 Y7.8975
G01 X47.6017 Y7.8719
G01 X47.6071 Y7.8690
G01 X47.6126 Y7.8719
G01 X47.6666 Y7.8975
G01 X47.6802 Y7.9031
G01 X47.6804 Y7.9026
G01 X47.7365 Y7.9233
G01 X47.7506 Y7.9276
G01 X47.8085 Y7.9421
G01 X47.8230 Y7.9450
G01 X47.8821 Y7.9538
G01 X47.8968 Y7.9553
G01 X47.9565 Y7.9582
G01 X47.9712 Y7.9583
G01 X48.0309 Y7.9554
G01 X48.0456 Y7.9539
G01 X48.0455 Y7.9536
G01 X48.0603 Y7.9523
G01 X48.1047 Y7.9452
G01 X48.1253 Y7.9411
G01 X48.1772 Y7.9278
G01 X48.1913 Y7.9236
G01 X48.2476 Y7.9034
G01 X48.2612 Y7.8978
G01 X48.3152 Y7.8723
G01 X48.3210 Y7.8692
G01 X48.3390 Y7.8783
G01 X48.3682 Y7.8920
G01 X48.3995 Y7.9053
G01 X48.4376 Y7.9191
G01 X48.4379 Y7.9183
G01 X48.4700 Y7.9292
G01 X48.5093 Y7.9392
G01 X48.5426 Y7.9461
G01 X48.5827 Y7.9523
G01 X48.6165 Y7.9559
G01 X48.6463 Y7.9577
G01 X48.6786 Y7.9584
G01 X48.9643 Y7.9584
G01 X48.9965 Y7.9577
G01 X48.9965 Y7.9571
G01 X49.0304 Y7.9555
G01 X49.0602 Y7.9523
G01 X49.1043 Y7.9454
G01 X49.1439 Y7.9368
G01 X49.1437 Y7.9359
G01 X49.1728 Y7.9292
G01 X49.2053 Y7.9191
G01 X49.2434 Y7.9053
G01 X49.2843 Y7.8876
G01 X49.3038 Y7.8783
G01 X49.4002 Y7.8301
G01 X49.4249 Y7.8465
G01 X49.4375 Y7.8540
G01 X49.4902 Y7.8822
G01 X49.5035 Y7.8885
G01 X49.5588 Y7.9114
G01 X49.5726 Y7.9164
G01 X49.5729 Y7.9157
G01 X49.6298 Y7.9337
G01 X49.6441 Y7.9373
G01 X49.7028 Y7.9489
G01 X49.7173 Y7.9511
G01 X49.7768 Y7.9570
G01 X49.7915 Y7.9577
G01 X49.8513 Y7.9577
G01 X49.8660 Y7.9570
G01 X49.8660 Y7.9560
G01 X49.8955 Y7.9536
G01 X49.8955 Y7.9539
G01 X49.9255 Y7.9511
G01 X49.9475 Y7.9478
G01 X49.9632 Y7.9446
G01 X49.9712 Y7.9461
G01 X50.0113 Y7.9523
G01 X50.0410 Y7.9555
G01 X50.0749 Y7.9577
G01 X50.1071 Y7.9584
G01 X50.2500 Y7.9584
G01 X50.2946 Y7.9570
G01 X50.2946 Y7.9560
G01 X50.3241 Y7.9536
G01 X50.3241 Y7.9539
G01 X50.3541 Y7.9511
G01 X50.3761 Y7.9478
G01 X50.4273 Y7.9373
G01 X50.4416 Y7.9337
G01 X50.4988 Y7.9164
G01 X50.5127 Y7.9114
G01 X50.5713 Y7.8869
G01 X50.5825 Y7.8920
G01 X50.6138 Y7.9053
G01 X50.6519 Y7.9191
G01 X50.6522 Y7.9183
G01 X50.6843 Y7.9292
G01 X50.7236 Y7.9392
G01 X50.7569 Y7.9461
G01 X50.7864 Y7.9509
G01 X50.8267 Y7.9555
G01 X50.8606 Y7.9577
G01 X50.8929 Y7.9584
G01 X51.1071 Y7.9584
G01 X51.1394 Y7.9577
G01 X51.1394 Y7.9571
G01 X51.1692 Y7.9559
G01 X51.2064 Y7.9518
G01 X51.2098 Y7.9589
G01 X51.2102 Y7.9587
G01 X51.2231 Y7.9854
G01 X51.2456 Y8.0243
G01 X51.2616 Y8.0496
G01 X51.2788 Y8.0740
G01 X51.3058 Y8.1093
G01 X51.3255 Y8.1320
G01 X51.3560 Y8.1646
G01 X51.4274 Y8.2361
G01 X51.4491 Y8.2567
G01 X51.4600 Y8.2666
G01 X51.4604 Y8.2661
G01 X51.4824 Y8.2859
G01 X51.5062 Y8.3045
G01 X51.5180 Y8.3132
G01 X51.5187 Y8.3123
G01 X51.5426 Y8.3306
G01 X51.5804 Y8.3540
G01 X51.6064 Y8.3688
G01 X51.6331 Y8.3822
G01 X51.6733 Y8.4005
G01 X51.7016 Y8.4114
G01 X51.7155 Y8.4164
G01 X51.7157 Y8.4157
G01 X51.7438 Y8.4257
G01 X51.7870 Y8.4373
G01 X51.8162 Y8.4438
G01 X51.8456 Y8.4489
G01 X51.8898 Y8.4548
G01 X51.9197 Y8.4570
G01 X51.9643 Y8.4584
G01 X51.9942 Y8.4577
G01 X52.0089 Y8.4570
G01 X52.0089 Y8.4565
G01 X52.0387 Y8.4548
G01 X52.0684 Y8.4511
G01 X52.0829 Y8.4490
G01 X52.0828 Y8.4479
G01 X52.1125 Y8.4438
G01 X52.1559 Y8.4337
G01 X52.1848 Y8.4257
G01 X52.2269 Y8.4114
G01 X52.2268 Y8.4110
G01 X52.2549 Y8.4006
G01 X52.2955 Y8.3822
G01 X52.2953 Y8.3818
G01 X52.3222 Y8.3688
G01 X52.3474 Y8.3822
G01 X52.3607 Y8.3885
G01 X52.4159 Y8.4114
G01 X52.4298 Y8.4164
G01 X52.4300 Y8.4157
G01 X52.4870 Y8.4337
G01 X52.5013 Y8.4373
G01 X52.5599 Y8.4489
G01 X52.5745 Y8.4511
G01 X52.6340 Y8.4570
G01 X52.6487 Y8.4577
G01 X52.7085 Y8.4577
G01 X52.7232 Y8.4570
G01 X52.7231 Y8.4560
G01 X52.7526 Y8.4536
G01 X52.7527 Y8.4539
G01 X52.7827 Y8.4511
G01 X52.8046 Y8.4478
G01 X52.8559 Y8.4373
G01 X52.8702 Y8.4337
G01 X52.9274 Y8.4164
G01 X52.9412 Y8.4114
G01 X52.9965 Y8.3885
G01 X53.0098 Y8.3822
G01 X53.0625 Y8.3540
G01 X53.0751 Y8.3465
G01 X53.1248 Y8.3133
G01 X53.1367 Y8.3045
G01 X53.1829 Y8.2666
G01 X53.1938 Y8.2567
G01 X53.2361 Y8.2144
G01 X53.2460 Y8.2035
G01 X53.2451 Y8.2027
G01 X53.2611 Y8.1839
G01 X53.2614 Y8.1842
G01 X53.2839 Y8.1573
G01 X53.2956 Y8.1414
G01 X53.3259 Y8.0957
G01 X53.3334 Y8.0831
G01 X53.3616 Y8.0304
G01 X53.3679 Y8.0171
G01 X53.3921 Y7.9582
G01 X53.4007 Y7.9582
G01 X53.4003 Y7.9582
G01 X53.4604 Y7.9553
G01 X53.4750 Y7.9538
G01 X53.4750 Y7.9535
G01 X53.4896 Y7.9522
G01 X53.5342 Y7.9450
G01 X53.5547 Y7.9409
G01 X53.6066 Y7.9276
G01 X53.6207 Y7.9233
G01 X53.6770 Y7.9031
G01 X53.6906 Y7.8975
G01 X53.7446 Y7.8719
G01 X53.7500 Y7.8690
G01 X53.7554 Y7.8719
G01 X53.8094 Y7.8975
G01 X53.8230 Y7.9031
G01 X53.8233 Y7.9026
G01 X53.8793 Y7.9233
G01 X53.8934 Y7.9276
G01 X53.9514 Y7.9421
G01 X53.9658 Y7.9450
G01 X54.0250 Y7.9538
G01 X54.0396 Y7.9553
G01 X54.0993 Y7.9582
G01 X54.1141 Y7.9583
G01 X54.1738 Y7.9554
G01 X54.1884 Y7.9539
G01 X54.1884 Y7.9536
G01 X54.2031 Y7.9523
G01 X54.2476 Y7.9452
G01 X54.2682 Y7.9411
G01 X54.3200 Y7.9278
G01 X54.3341 Y7.9236
G01 X54.3904 Y7.9034
G01 X54.4040 Y7.8978
G01 X54.4581 Y7.8723
G01 X54.4711 Y7.8654
G01 X54.5224 Y7.8347
G01 X54.5346 Y7.8265
G01 X54.5827 Y7.7909
G01 X54.5940 Y7.7816
G01 X54.6384 Y7.7414
G01 X54.6490 Y7.7308
G01 X54.6890 Y7.6868
G01 X54.6983 Y7.6754
G01 X54.7339 Y7.6274
G01 X54.7425 Y7.6145
G01 X54.7729 Y7.5639
G01 X54.7799 Y7.5509
G01 X54.8054 Y7.4969
G01 X54.8111 Y7.4833
G01 X54.8106 Y7.4830
G01 X54.8313 Y7.4270
G01 X54.8355 Y7.4129
G01 X54.8501 Y7.3549
G01 X54.8530 Y7.3405
G01 X54.8618 Y7.2813
G01 X54.8632 Y7.2667
G01 X54.8662 Y7.2070
G01 X54.8662 Y7.1919
G01 X54.8633 Y7.1325
G01 X54.8619 Y7.1179
G01 X54.8615 Y7.1179
G01 X54.8603 Y7.1032
G01 X54.8532 Y7.0587
G01 X54.8490 Y7.0381
G01 X54.8358 Y6.9863
G01 X54.8222 Y6.9438
G01 X54.4648 Y5.9433
G01 X54.4550 Y5.9172
G01 X54.3485 Y5.6511
G01 X55.4540 Y5.6511
G01 X55.4208 Y5.6759
G01 X55.3947 Y5.6977
G01 X55.3648 Y5.7251
G01 X55.3560 Y5.7337
G01 X55.2787 Y5.8111
G01 X55.2556 Y5.8359
G01 X55.2485 Y5.8439
G01 X55.2492 Y5.8445
G01 X55.2293 Y5.8668
G01 X55.2087 Y5.8938
G01 X55.2025 Y5.9025
G01 X55.2031 Y5.9029
G01 X55.1833 Y5.9306
G01 X55.1623 Y5.9652
G01 X55.1461 Y5.9951
G01 X55.0709 Y6.1453
G01 X55.0616 Y6.1648
G01 X55.0454 Y6.2020
G01 X55.0335 Y6.2339
G01 X55.0301 Y6.2439
G01 X55.0306 Y6.2441
G01 X55.0200 Y6.2764
G01 X55.0099 Y6.3156
G01 X55.0038 Y6.3449
G01 X54.9969 Y6.3890
G01 X54.9933 Y6.4228
G01 X54.9915 Y6.4526
G01 X54.9907 Y6.4849
G01 X54.9907 Y6.9135
G01 X54.9915 Y6.9433
G01 X54.9936 Y6.9796
G01 X54.9969 Y7.0093
G01 X55.0030 Y7.0494
G01 X55.0124 Y7.0931
G01 X55.0133 Y7.0928
G01 X55.0200 Y7.1220
G01 X55.0301 Y7.1544
G01 X55.0454 Y7.1963
G01 X55.0572 Y7.2238
G01 X55.0709 Y7.2530
G01 X55.1480 Y7.4069
G01 X55.1623 Y7.4331
G01 X55.1833 Y7.4678
G01 X55.2087 Y7.5045
G01 X55.2268 Y7.5283
G01 X55.2485 Y7.5544
G01 X55.2787 Y7.5873
G01 X55.3648 Y7.6733
G01 X55.3947 Y7.7007
G01 X55.3954 Y7.7000
G01 X55.4208 Y7.7224
G01 X55.4447 Y7.7405
G01 X55.4780 Y7.7636
G01 X55.5161 Y7.7868
G01 X55.5459 Y7.8031
G01 X55.6493 Y7.8548
G01 X55.6130 Y7.8556
G01 X55.5983 Y7.8563
G01 X55.5983 Y7.8573
G01 X55.5688 Y7.8597
G01 X55.5688 Y7.8594
G01 X55.5388 Y7.8621
G01 X55.5168 Y7.8655
G01 X55.4656 Y7.8760
G01 X55.4513 Y7.8796
G01 X55.3941 Y7.8969
G01 X55.3802 Y7.9019
G01 X55.3250 Y7.9247
G01 X55.3117 Y7.9310
G01 X55.2589 Y7.9592
G01 X55.2463 Y7.9668
G01 X55.1966 Y8.0000
G01 X55.1848 Y8.0088
G01 X55.1386 Y8.0467
G01 X55.1276 Y8.0566
G01 X55.0854 Y8.0989
G01 X55.0755 Y8.1098
G01 X55.0763 Y8.1106
G01 X55.0603 Y8.1293
G01 X55.0600 Y8.1291
G01 X55.0375 Y8.1560
G01 X55.0258 Y8.1719
G01 X54.9956 Y8.2175
G01 X54.9880 Y8.2302
G01 X54.9598 Y8.2829
G01 X54.9535 Y8.2962
G01 X54.9306 Y8.3514
G01 X54.9257 Y8.3653
G01 X54.9263 Y8.3655
G01 X54.9083 Y8.4225
G01 X54.9047 Y8.4368
G01 X54.8931 Y8.4954
G01 X54.8909 Y8.5100
G01 X54.8851 Y8.5695
G01 X54.8836 Y8.6141
G01 X54.8836 Y10.1141
G01 X54.8851 Y10.1587
G01 X54.8860 Y10.1586
G01 X54.8863 Y10.1621
G01 X43.7020 Y10.1621
G01 X43.7020 Y8.4566
G01 X43.7201 Y8.4577
G01 X43.7799 Y8.4577
G01 X43.7946 Y8.4570
G01 X43.7946 Y8.4560
G01 X43.8241 Y8.4536
G01 X43.8241 Y8.4539
G01 X43.8541 Y8.4511
G01 X43.8761 Y8.4478
G01 X43.9273 Y8.4373
G01 X43.9416 Y8.4337
G01 X43.9988 Y8.4164
G01 X44.0127 Y8.4114
G01 X44.0679 Y8.3885
G01 X44.0812 Y8.3822
G01 X44.1339 Y8.3540
G01 X44.1466 Y8.3465
G01 X44.1784 Y8.3252
G01 X44.2106 Y8.3465
G01 X44.2232 Y8.3540
G01 X44.2759 Y8.3822
G01 X44.2893 Y8.3885
G01 X44.3445 Y8.4114
G01 X44.3584 Y8.4164
G01 X44.3586 Y8.4157
G01 X44.4156 Y8.4337
G01 X44.4298 Y8.4373
G01 X44.4885 Y8.4489
G01 X44.5030 Y8.4511
G01 X44.5625 Y8.4570
G01 X44.5773 Y8.4577
G01 X44.6370 Y8.4577
G01 X44.6517 Y8.4570
G01 X44.6517 Y8.4560
G01 X44.6812 Y8.4536
G01 X44.6812 Y8.4539
G01 X44.7112 Y8.4511
G01 X44.7332 Y8.4478
G01 X44.7844 Y8.4373
G01 X44.7987 Y8.4337
G01 X44.8559 Y8.4164
G01 X44.8698 Y8.4114
G01 X44.9250 Y8.3885
G01 X44.9383 Y8.3822
G01 X44.9911 Y8.3540
G01 X45.0037 Y8.3465
G01 X45.0534 Y8.3133
G01 X45.0652 Y8.3045
G01 X45.1114 Y8.2666
G01 X45.1224 Y8.2567
G01 X45.1646 Y8.2144
G01 X45.1745 Y8.2035
G01 X45.1737 Y8.2027
G01 X45.1897 Y8.1839
G01 X45.1900 Y8.1842
G01 X45.2124 Y8.1573
G01 X45.2242 Y8.1414
G01 X45.2544 Y8.0957
G01 X45.2620 Y8.0831
G01 X45.2902 Y8.0304
G01 X45.2965 Y8.0171
G01 X45.3208 Y7.9577
G01 X45.3513 Y7.9577
G01 X45.3660 Y7.9570
G01 X45.3660 Y7.9560
G01 X45.3955 Y7.9536
G01 X45.3955 Y7.9539
G01 X45.4283 Y7.9507
G01 X45.4696 Y7.9555
G01 X45.5141 Y7.9580
G01 X45.5357 Y7.9584
G01 X45.7500 Y7.9584
G01 X45.7716 Y7.9580
G01 X45.7822 Y7.9577
G01 X45.7822 Y7.9571
G01 X45.8121 Y7.9559
G01 X45.8459 Y7.9523
G01 X45.8860 Y7.9461
G01 X45.9153 Y7.9401
G01 X45.9241 Y7.9589
G01 X45.9245 Y7.9587
G01 X45.9374 Y7.9854
G01 X45.9523 Y8.0117
G01 X45.9758 Y8.0496
G01 X45.9931 Y8.0740
G01 X46.0201 Y8.1093
G01 X46.0496 Y8.1430
G01 X46.0703 Y8.1646
G01 X46.1417 Y8.2361
G01 X46.1634 Y8.2567
G01 X46.1743 Y8.2666
G01 X46.1746 Y8.2661
G01 X46.1967 Y8.2859
G01 X46.2205 Y8.3045
G01 X46.2323 Y8.3132
G01 X46.2330 Y8.3123
G01 X46.2569 Y8.3306
G01 X46.2946 Y8.3540
G01 X46.3206 Y8.3688
G01 X46.3474 Y8.3822
G01 X46.3876 Y8.4005
G01 X46.4159 Y8.4114
G01 X46.4298 Y8.4164
G01 X46.4300 Y8.4157
G01 X46.4581 Y8.4257
G01 X46.4870 Y8.4337
G01 X46.5305 Y8.4438
G01 X46.5745 Y8.4511
G01 X46.6041 Y8.4548
G01 X46.6487 Y8.4577
G01 X46.6786 Y8.4584
G01 X46.7085 Y8.4577
G01 X46.7232 Y8.4570
G01 X46.7231 Y8.4565
G01 X46.7530 Y8.4548
G01 X46.7827 Y8.4511
G01 X46.7972 Y8.4490
G01 X46.7971 Y8.4479
G01 X46.8268 Y8.4438
G01 X46.8701 Y8.4337
G01 X46.8990 Y8.4257
G01 X46.9274 Y8.4164
G01 X46.9692 Y8.4006
G01 X47.0098 Y8.3822
G01 X47.0096 Y8.3818
G01 X47.0363 Y8.3689
G01 X47.0625 Y8.3540
G01 X47.1004 Y8.3305
G01 X47.1248 Y8.3133
G01 X47.1601 Y8.2862
G01 X47.1829 Y8.2666
G01 X47.2154 Y8.2361
G01 X47.2869 Y8.1646
G01 X47.3174 Y8.1320
G01 X47.3170 Y8.1317
G01 X47.3370 Y8.1093
G01 X47.3641 Y8.0740
G01 X47.3631 Y8.0733
G01 X47.3813 Y8.0496
G01 X47.3973 Y8.0243
G01 X47.4197 Y7.9854
G01 X47.4330 Y7.9589
G01 X47.4452 Y7.9323
G00 Z2.0000
G00 X47.3466 Y7.8178
G01 F60.00
G01 Z-2.4000
G01 F120.00
G01 X47.3653 Y7.8148
G01 X47.3845 Y7.8110
G01 X47.4251 Y7.8005
G01 X47.4392 Y7.7963
G01 X47.4832 Y7.7805
G01 X47.4968 Y7.7748
G01 X47.5391 Y7.7548
G01 X47.5521 Y7.7479
G01 X47.5921 Y7.7238
G01 X47.6071 Y7.7136
G01 X47.6226 Y7.7241
G01 X47.6622 Y7.7479
G01 X47.6752 Y7.7548
G01 X47.7175 Y7.7748
G01 X47.7311 Y7.7805
G01 X47.7312 Y7.7801
G01 X47.7751 Y7.7963
G01 X47.7892 Y7.8005
G01 X47.8345 Y7.8119
G01 X47.8490 Y7.8148
G01 X47.8952 Y7.8217
G01 X47.9099 Y7.8232
G01 X47.9566 Y7.8255
G01 X47.9716 Y7.8255
G01 X48.0180 Y7.8232
G01 X48.0326 Y7.8218
G01 X48.0326 Y7.8215
G01 X48.0441 Y7.8205
G01 X48.0789 Y7.8149
G01 X48.0933 Y7.8121
G01 X48.1387 Y7.8007
G01 X48.1528 Y7.7965
G01 X48.1968 Y7.7808
G01 X48.2104 Y7.7751
G01 X48.2527 Y7.7552
G01 X48.2657 Y7.7482
G01 X48.3058 Y7.7242
G01 X48.3152 Y7.7179
G01 X48.3984 Y7.7595
G01 X48.4196 Y7.7695
G01 X48.4486 Y7.7819
G01 X48.4767 Y7.7921
G01 X48.4818 Y7.7938
G01 X48.4819 Y7.7933
G01 X48.5069 Y7.8017
G01 X48.5335 Y7.8085
G01 X48.5627 Y7.8148
G01 X48.5887 Y7.8190
G01 X48.6277 Y7.8236
G01 X48.6552 Y7.8251
G01 X48.6786 Y7.8257
G01 X48.9643 Y7.8257
G01 X48.9877 Y7.8251
G01 X49.0152 Y7.8236
G01 X49.0466 Y7.8201
G01 X49.0542 Y7.8190
G01 X49.0541 Y7.8183
G01 X49.0761 Y7.8156
G01 X49.1071 Y7.8090
G01 X49.1145 Y7.8072
G01 X49.1142 Y7.8063
G01 X49.1360 Y7.8017
G01 X49.1399 Y7.8005
G01 X49.1683 Y7.7913
G01 X49.1942 Y7.7819
G01 X49.2233 Y7.7695
G01 X49.2445 Y7.7595
G01 X49.3873 Y7.6881
G01 X49.3872 Y7.6878
G01 X49.3988 Y7.6821
G01 X49.4141 Y7.6737
G01 X49.4424 Y7.6978
G01 X49.4574 Y7.7089
G01 X49.4931 Y7.7326
G01 X49.5058 Y7.7402
G01 X49.5470 Y7.7622
G01 X49.5603 Y7.7685
G01 X49.6035 Y7.7864
G01 X49.6174 Y7.7913
G01 X49.6175 Y7.7908
G01 X49.6621 Y7.8049
G01 X49.6764 Y7.8085
G01 X49.7222 Y7.8176
G01 X49.7368 Y7.8198
G01 X49.7833 Y7.8244
G01 X49.7981 Y7.8251
G01 X49.8448 Y7.8251
G01 X49.8595 Y7.8244
G01 X49.8595 Y7.8236
G01 X49.9060 Y7.8198
G01 X49.9264 Y7.8167
G01 X49.9641 Y7.8090
G01 X49.9953 Y7.8156
G01 X50.0248 Y7.8201
G01 X50.0563 Y7.8236
G01 X50.0861 Y7.8252
G01 X50.1071 Y7.8257
G01 X50.2500 Y7.8257
G01 X50.2881 Y7.8244
G01 X50.2880 Y7.8236
G01 X50.3346 Y7.8198
G01 X50.3550 Y7.8167
G01 X50.3950 Y7.8085
G01 X50.4093 Y7.8049
G01 X50.4541 Y7.7913
G01 X50.4679 Y7.7864
G01 X50.5111 Y7.7685
G01 X50.5244 Y7.7622
G01 X50.5694 Y7.7379
G01 X50.6127 Y7.7595
G01 X50.6338 Y7.7695
G01 X50.6591 Y7.7804
G01 X50.6888 Y7.7913
G01 X50.6961 Y7.7938
G01 X50.6962 Y7.7933
G01 X50.7172 Y7.8005
G01 X50.7478 Y7.8085
G01 X50.7810 Y7.8156
G01 X50.8105 Y7.8201
G01 X50.8420 Y7.8236
G01 X50.8695 Y7.8251
G01 X50.8929 Y7.8257
G01 X51.1071 Y7.8257
G01 X51.1305 Y7.8251
G01 X51.1580 Y7.8236
G01 X51.1895 Y7.8201
G01 X51.1970 Y7.8190
G01 X51.1969 Y7.8183
G01 X51.2230 Y7.8148
G01 X51.2522 Y7.8085
G01 X51.2573 Y7.8072
G01 X51.2571 Y7.8063
G01 X51.2789 Y7.8017
G01 X51.2902 Y7.7981
G01 X51.2934 Y7.8097
G01 X51.3007 Y7.8318
G01 X51.3141 Y7.8676
G01 X51.3298 Y7.9022
G01 X51.3302 Y7.9020
G01 X51.3403 Y7.9229
G01 X51.3519 Y7.9434
G01 X51.3720 Y7.9758
G01 X51.3942 Y8.0067
G01 X51.4085 Y8.0251
G01 X51.4239 Y8.0429
G01 X51.4499 Y8.0707
G01 X51.5213 Y8.1422
G01 X51.5491 Y8.1682
G01 X51.5494 Y8.1678
G01 X51.5667 Y8.1833
G01 X51.5853 Y8.1978
G01 X51.5971 Y8.2066
G01 X51.5977 Y8.2058
G01 X51.6163 Y8.2201
G01 X51.6486 Y8.2402
G01 X51.6689 Y8.2517
G01 X51.7032 Y8.2685
G01 X51.7242 Y8.2778
G01 X51.7464 Y8.2864
G01 X51.7602 Y8.2913
G01 X51.7604 Y8.2908
G01 X51.7824 Y8.2987
G01 X51.8050 Y8.3049
G01 X51.8421 Y8.3136
G01 X51.8797 Y8.3198
G01 X51.9028 Y8.3226
G01 X51.9262 Y8.3244
G01 X51.9643 Y8.3257
G01 X51.9877 Y8.3251
G01 X52.0257 Y8.3226
G01 X52.0635 Y8.3176
G01 X52.0633 Y8.3168
G01 X52.0866 Y8.3136
G01 X52.1093 Y8.3085
G01 X52.1462 Y8.2987
G01 X52.1822 Y8.2864
G01 X52.1821 Y8.2861
G01 X52.2041 Y8.2779
G01 X52.2254 Y8.2685
G01 X52.2594 Y8.2518
G01 X52.2926 Y8.2326
G01 X52.3123 Y8.2201
G01 X52.3216 Y8.2136
G01 X52.3503 Y8.2326
G01 X52.3629 Y8.2402
G01 X52.4041 Y8.2622
G01 X52.4174 Y8.2685
G01 X52.4606 Y8.2864
G01 X52.4745 Y8.2913
G01 X52.4747 Y8.2908
G01 X52.5192 Y8.3049
G01 X52.5335 Y8.3085
G01 X52.5794 Y8.3176
G01 X52.5940 Y8.3198
G01 X52.6405 Y8.3244
G01 X52.6552 Y8.3251
G01 X52.7019 Y8.3251
G01 X52.7167 Y8.3244
G01 X52.7166 Y8.3236
G01 X52.7632 Y8.3198
G01 X52.7835 Y8.3167
G01 X52.8236 Y8.3085
G01 X52.8379 Y8.3049
G01 X52.8826 Y8.2913
G01 X52.8965 Y8.2864
G01 X52.9397 Y8.2685
G01 X52.9530 Y8.2622
G01 X52.9942 Y8.2402
G01 X53.0069 Y8.2326
G01 X53.0457 Y8.2066
G01 X53.0576 Y8.1978
G01 X53.0937 Y8.1682
G01 X53.1046 Y8.1583
G01 X53.1377 Y8.1252
G01 X53.1476 Y8.1143
G01 X53.1469 Y8.1137
G01 X53.1772 Y8.0782
G01 X53.1883 Y8.0632
G01 X53.2120 Y8.0275
G01 X53.2196 Y8.0148
G01 X53.2416 Y7.9736
G01 X53.2479 Y7.9603
G01 X53.2658 Y7.9171
G01 X53.2707 Y7.9032
G01 X53.2702 Y7.9031
G01 X53.2843 Y7.8585
G01 X53.2879 Y7.8442
G01 X53.2933 Y7.8172
G01 X53.3245 Y7.8218
G01 X53.3392 Y7.8232
G01 X53.3856 Y7.8255
G01 X53.4006 Y7.8255
G01 X53.4003 Y7.8255
G01 X53.4473 Y7.8232
G01 X53.4733 Y7.8204
G01 X53.5082 Y7.8148
G01 X53.5274 Y7.8110
G01 X53.5680 Y7.8005
G01 X53.5821 Y7.7963
G01 X53.6261 Y7.7805
G01 X53.6397 Y7.7748
G01 X53.6819 Y7.7548
G01 X53.6949 Y7.7479
G01 X53.7350 Y7.7238
G01 X53.7500 Y7.7136
G01 X53.7655 Y7.7241
G01 X53.8051 Y7.7479
G01 X53.8181 Y7.7548
G01 X53.8603 Y7.7748
G01 X53.8739 Y7.7805
G01 X53.8741 Y7.7801
G01 X53.9179 Y7.7963
G01 X53.9320 Y7.8005
G01 X53.9774 Y7.8119
G01 X53.9918 Y7.8148
G01 X54.0381 Y7.8217
G01 X54.0527 Y7.8232
G01 X54.0994 Y7.8255
G01 X54.1144 Y7.8255
G01 X54.1608 Y7.8232
G01 X54.1870 Y7.8205
G01 X54.2217 Y7.8149
G01 X54.2410 Y7.8111
G01 X54.2815 Y7.8007
G01 X54.2956 Y7.7965
G01 X54.3397 Y7.7808
G01 X54.3533 Y7.7751
G01 X54.3956 Y7.7552
G01 X54.4086 Y7.7482
G01 X54.4487 Y7.7242
G01 X54.4609 Y7.7160
G01 X54.4985 Y7.6882
G01 X54.5099 Y7.6789
G01 X54.5445 Y7.6475
G01 X54.5552 Y7.6369
G01 X54.5864 Y7.6025
G01 X54.5957 Y7.5911
G01 X54.6236 Y7.5536
G01 X54.6321 Y7.5408
G01 X54.6558 Y7.5012
G01 X54.6628 Y7.4882
G01 X54.6828 Y7.4460
G01 X54.6885 Y7.4324
G01 X54.6880 Y7.4322
G01 X54.7042 Y7.3884
G01 X54.7085 Y7.3743
G01 X54.7199 Y7.3289
G01 X54.7228 Y7.3145
G01 X54.7297 Y7.2683
G01 X54.7311 Y7.2536
G01 X54.7334 Y7.2069
G01 X54.7335 Y7.1919
G01 X54.7312 Y7.1455
G01 X54.7297 Y7.1308
G01 X54.7295 Y7.1308
G01 X54.7285 Y7.1193
G01 X54.7229 Y7.0846
G01 X54.7201 Y7.0701
G01 X54.7087 Y7.0248
G01 X54.6971 Y6.9885
G01 X54.3367 Y5.9797
G01 X54.3348 Y5.9746
G01 X54.3345 Y5.9747
G01 X54.3317 Y5.9665
G01 X54.1870 Y5.6050
G01 X54.1765 Y5.5809
G01 X54.1619 Y5.5509
G01 X54.1433 Y5.5184
G01 X68.4629 Y5.5184
G01 X68.4547 Y5.5368
G01 X68.4493 Y5.5505
G01 X68.4498 Y5.5507
G01 X68.4382 Y5.5842
G01 X68.4206 Y5.5807
G01 X68.4060 Y5.5786
G01 X68.3595 Y5.5740
G01 X68.3448 Y5.5733
G01 X68.2981 Y5.5733
G01 X68.2833 Y5.5740
G01 X68.2834 Y5.5748
G01 X68.2368 Y5.5786
G01 X68.2165 Y5.5816
G01 X68.1764 Y5.5898
G01 X68.1621 Y5.5934
G01 X68.1174 Y5.6070
G01 X68.1035 Y5.6120
G01 X68.0603 Y5.6299
G01 X68.0470 Y5.6361
G01 X68.0058 Y5.6582
G01 X68.0000 Y5.6616
G01 X67.9942 Y5.6582
G01 X67.9530 Y5.6361
G01 X67.9397 Y5.6299
G01 X67.8965 Y5.6120
G01 X67.8826 Y5.6070
G01 X67.8824 Y5.6075
G01 X67.8379 Y5.5934
G01 X67.8236 Y5.5898
G01 X67.7778 Y5.5807
G01 X67.7632 Y5.5786
G01 X67.7167 Y5.5740
G01 X67.7019 Y5.5733
G01 X67.6552 Y5.5733
G01 X67.6405 Y5.5740
G01 X67.6405 Y5.5748
G01 X67.5940 Y5.5786
G01 X67.5736 Y5.5816
G01 X67.5335 Y5.5898
G01 X67.5192 Y5.5934
G01 X67.4745 Y5.6070
G01 X67.4606 Y5.6120
G01 X67.4174 Y5.6299
G01 X67.4041 Y5.6361
G01 X67.3629 Y5.6582
G01 X67.3503 Y5.6658
G01 X67.3216 Y5.6849
G01 X67.2926 Y5.6658
G01 X67.2800 Y5.6582
G01 X67.2387 Y5.6361
G01 X67.2254 Y5.6299
G01 X67.1822 Y5.6120
G01 X67.1683 Y5.6070
G01 X67.1682 Y5.6075
G01 X67.1236 Y5.5934
G01 X67.1093 Y5.5898
G01 X67.0635 Y5.5807
G01 X67.0489 Y5.5786
G01 X67.0024 Y5.5740
G01 X66.9877 Y5.5733
G01 X66.9409 Y5.5733
G01 X66.9262 Y5.5740
G01 X66.9262 Y5.5748
G01 X66.8797 Y5.5786
G01 X66.8593 Y5.5816
